X:1
T:Piano Sonata Op.109
T:SONATE
T:L.v.Beethoven, Op.109 
T:für das Pianoforte
C:L.V.Beethoven
Z:
%%score { ( 1 2 5 6 ) | ( 3 4 ) }
L:1/8
Q:1/4=108
M:2/4
K:E
V:1 treble nm="Piano" snm="Pno."
V:2 treble 
V:5 treble 
V:6 treble 
V:3 bass 
V:4 bass 
V:1
"_dolce"!p!"^Vivace, ma non troppo.Sempre legato" G2 | B2 E2 | G2 C2 | E2[Q:1/4=100] [DF]2 | %4
[Q:1/4=92] [EG]2[Q:1/4=108]"_cresc." G2 | B2 (^A<e) | (d<B) B2 | e2[Q:1/4=100] B2 | %8
[Q:1/4=92] f2[Q:1/4=84] (^A<^a)[Q:1/4=70] || %9
[M:3/4]!f!"^Adagio espressivo" =A/4-^B/4-d/4-f/4-[Q:1/4=24] [ABdf=a]2-!p![Q:1/4=28] [ABdfa](.g/.f/)[Q:1/4=30]"_cresc." ([ce]/[^Bd]/)(.[ce]/.[GBf]/)[Q:1/4=30] | %10
!f! ^^f!mp![Gceg]-[Q:1/4=28] [Gceg]!p!"^"(.^f/.e/)[Q:1/4=30] [F-d]/[EFc]/"_cresc."(.[DFd]/.[E=Be]/) | %11
!p! (f/B/f/e/ d2) (5:4:5c/4d/4[Q:1/4=38]"_cresc."c/4^B/4c/4[Q:1/4=36] (6:4:6d/4e/4^e/4f/4^^f/4g/4 | %12
!f![Q:1/4=24] a/4[Q:1/4=30]a'/4d'/4^b/4 a/4d/4^B/4A/4[I:staff +1] D/4^B,/4A,/4D,/4!p! (6:4:6^B,,/4A,,/4B,,/4D,/4A,/4B,/4[I:staff -1] D/8"_cresc."A/8B/8d/8 a/8b/8d'/8a'/8!p![Q:1/4=24] ([gg']/[^^f^^f']/) | %13
!f![Q:1/4=24] (3^^f'/4d'/4^a/4[Q:1/4=30] (3^^f/4d/4^A/4 (3^^F/4D/4^A,/4[I:staff +1] (3^^F,/4D,/4^A,,/4[I:staff -1] z/[I:staff +1] ^^F,/8^A,/8[I:staff -1]D/8F/8"_dim." z/ F/8A/8d/8f/8 z/ f/8a/8d'/8f'/8!p![Q:1/4=24]"^\n" ([ff']/"^""^"[^f^f']/) | %14
[Q:1/4=22] ([ff']/4"_espressivo"b/4^a/4b/4a/4b/4[Q:1/4=20]f'/4e'/4)!8va(! (d'/4^a'/4b'/4a'/4)[Q:1/4=24] (3b'/4a'/4f'/4[Q:1/4=26]"_cresc." (3a'/4g'/4e'/4[Q:1/4=28] (3g'/4f'/4d'/4!8va)![Q:1/4=30] (3f'/4e'/4c'/4 (3e'/4d'/4b/4 (3d'/4c'/4^a/4 | %15
[Q:1/4=34] (3b/4^a/4g/4(3f/4e/4d/4 (3c/4B/4^A/4(3G/4F/4E/4 (3D/4C/4B,/4[I:staff +1](3^A,/4G,/4F,/4 (3E,/4D,/4C,/4(3B,,/4"_ri    　     _         _         tar         _         _         dan        _         _         do""_dim."^A,,/4B,,/4[Q:1/4=32] (3C,/4D,/4E,/4(3F,/4G,/4A,/4[Q:1/4=30][I:staff -1] (3B,/4C/4D/4(3E/4F/4G/4[Q:1/4=28] ^A/B/c/d/[Q:1/4=26] e/f/[Q:1/4=20]g/^a/ | %16
[M:2/4][Q:1/4=108]"^Tempo Ⅰ.""_dolce"!p! b (B/f/) | z (B/^A/) z (c/g/) | z (c/^B/) z ([Bd]/^b/) | %19
 z ([ce]/c'/) z (^b/d'/) | z (g/e'/) z ([fd']/g/) | z ([eg]/e'/) z ([fc']/f'/) | %22
 z ([g^b]/g'/)"^sempre legato"!pp!"_cresc." ([^Ad]2 | [=Bd]2 [^^Fc]2 | [GB]2 [^^F^A]2 | %25
 [^EGB]2 [B,EG]2 | [^A,D^^F]2 [A,DF]2 | [B,DG]2 [D^^F^A]2 |!p!"_cresc." [DGB]2 [D^^F^A]2 | %29
 [DGB]2"^" [^F^Ac]2 | [FBd]2 [F^Ac]2 | [FBd]2 [^A^^c^e]2 | [^Adf]2 [^A^^c^e]2 | %33
 [^Adf]2"^" [^c^eg]2) |"^sempre legato"!mf! [cf^a]2 [dfb]2 | [Bfg]2 [cf^a]2 | [dfb]2 [f^ac']2 | %37
 [fbd']2 [gbe']2 | [ebc']2 [fbd']2 | [gbe']2 [bd'f']2 | [fbd']2 [gbe']2 | [bd'f']2 [be'g']2 | %42
 [=c'f'a']2 [e'=g'^a']2 |"_cresc."!8va(! [d'b']2 [g'b']2 | b'2 [f'b']2 | [d'b']2 [g'b']2 | %46
!<(! b'2 [f'b']2 | [d'b']2 [g'b']2 | b'2 [e'b']2 | [f'b']2!<)!!f! (g'<b') | (b'<f') (e'<g') | %51
 (g'<d')!8va)! (c'<e') | (e'<b) [bd'f']2 | [be'g']2!p! z (G/B/) | z (B/f/) z ([ef]/^a/) | %55
 z (^a/b/)"_legato""_cresc." (c'<e') | (e'<b) (b<=a') | (g'<e')[Q:1/4=100] (c'<e') | %58
[Q:1/4=92] (g<e')[Q:1/4=80] (f<d')[Q:1/4=68] || %59
[M:3/4]"^Adagio espressivo" =d/4-^e/4-g/4-b/4-[Q:1/4=24]!f! [degb=d'-]2 d'(.c'/.b/)!p![Q:1/4=30]"_cresc." ([fa]/[eg]/)(.[fa]/.[gb]/)[Q:1/4=28] | %60
!f! (^bc'-) c'!p![Q:1/4=28](.=b/.a/)[Q:1/4=30] (g/f/)"_cresc."(.g/.a/) | %61
!p! (b/e/b/a/) g2[Q:1/4=24]"_cresc."!<(! (5:4:5f/8g/8f/8^e/8f/8 g/8a/8b/8c'/8!mf! [=d=fb=d']!<)! || %62
[K:C]!f! [dfbd']/4[Q:1/4=30]b/4g/4f/4d/4B/4G/4F/4[I:staff +1] (3D/4B,/4G,/4[I:staff -1] z/ z/ G,/8B,/8D/8F/8 z/ d/8f/8g/8b/8[Q:1/4=24]!>(! ([dfd']/!>)![cec']/) | %63
[Q:1/4=24]!ff! (3c'/4g/4e/4[Q:1/4=30] (3c/4G/4E/4[I:staff +1] (3C/4G,/4E,/4 (3C,/4G,,/4E,,/4[Q:1/4=26][I:staff -1] z/4[I:staff +1] (3C,/8E,/8G,/8[Q:1/4=20][I:staff -1] z/4 (3c/8e/8g/8[Q:1/4=24]!mf! ([cec']/[Beb]/)"_cresc." [Beb][Q:1/4=20]!>(![be'b']-!>)! || %64
[K:E][Q:1/4=24]!p!"_espressivo" ([be'b']/4e'/4d'/4e'/4d'/4e'/4b'/4a'/4)[Q:1/4=30] g'/4d'/4e'/4d'/4"_cresc." (6:4:6e'/4c'/4d'/4b/4c'/4a/4 (6:4:6b/4g/4a/4f/4g/4e/4 (6:4:6f/4d/4e/4c/4d/4B/4 | %65
 (6:4:6c/4A/4B/4G/4A/4F/4(6:4:6G/4E/4F/4D/4E/4C/4 (6:4:6D/4B,/4C/4[I:staff +1]A,/4B,/4G,/4 (6:4:6A,/4F,/4G,/4E,/4F,/4D,/4"_dim." (6:4:6E,/4C,/4D,/4B,,/4C,/4^A,,/4 (6:4:6B,,/4=A,,/4B,,/4G,,/4B,,/4F,,/4 | %66
[Q:1/4=40] (3E,,/B,,/G,,/(3E,/B,,/G,/ (3E,/B,/G,/[I:staff -1](3E/B,/G/ (3E/B/G/(3e/B/g/[Q:1/4=24] (5:4:5e/4b/4g/4e'/4b/4[Q:1/4=32]"^ritar" g'e' || %67
[M:2/4][Q:1/4=30]"_legato""^dando" b^b"^Tempo primo."[Q:1/4=108] (c'<e') | (e'<b) (a<b) | %69
 (b<g) z (c'/e'/) | z (e'/b/) z (b/[d'f']/) | z ([e'g']/b/)!<(! ((f<b) | (g<b) (a<b)!<)! | %73
 (b<e')) z (b/f/) | z (b/g/) z (b/a/) | z (b/g/)[Q:1/4=104]!<(! (f<b) | %76
[Q:1/4=100] (g<b)[Q:1/4=96] (a<b)!<)![Q:1/4=80] | z2!p! [B,DF]2 | z2 [B,EG]2 | z2 [^B,DFA]2 | %80
[Q:1/4=92] ([CEG]2 ([C-^Ec-]2 | [CFc]2) [B,=D^EGB]2 | [A,CFA]2 [G,B,=D^EG]2 | [A,CFA]2 C2 | E2 D2 | %85
 E2 [=CDF]2 |!>(! [B,EG]2[Q:1/4=80] [^A,Ec-]2!>)! |[Q:1/4=92] c2[Q:1/4=80] B2) | %88
!p![Q:1/4=108] G2"^legato""_cresc." (A,<A) |[K:bass] F2 (B,<E) | D2!mp! (G,<E) |"_dim." (=C2 B,2) | %92
 (^C2 B,2) |!pp! (=C2 B,2) |"_cresc."!<(! (^C2 B,2) |[K:treble] (A2 G2) | (c2 B2) | (a2 g2) | %98
[Q:1/4=104] (c'2[Q:1/4=96] b2)!<)! |[Q:1/4=88]!>(! (c'2!>)!!p![Q:1/4=80] b2)[Q:1/4=60] | %100
[Q:1/4=50] z2[K:bass]!p! [E,G,B,]2- |[Q:1/4=40] !fermata![E,G,B,]2 |] %102
[K:G][M:6/8][K:treble][Q:3/8=158]!ff!"^Prestissimo." (G3- GEB) | (B3- BGe) | (e2 f g2 f) | %105
 (e3 ^d2) z | (c3- cAe) | (e3- eBb) | (bc'a gfb) | e2 z z2 z |!p! A3- AGF | B3- BAG | %112
!<(! (c2 f- f2 e | ^d2!<)! f!>(! g2 e)!>)! |!p! A3- AGF | B3- BAG |!<(! (c2 f- f2 e | %117
 ^d2!<)! f!>(! eFG)!>)! |!p! A3- AGF | B3- BAG |!<(! (c2 f-"^legato" f2 e | %121
 ^d2!<)! f-!>(! fge)!>)! |!p! A3- AGF | B3- BAG |"^legato"!<(! c2 f- f2 e | ^d2!<)! (f e2) z | %126
[K:bass]!p! (G,2 F, ^D,2 E,) | B,,3 B,,2 B,, | (B,,3 A,,2 B,,) | (C,3 B,,3) | %130
[K:treble]"_un poco espressivo"[Q:3/8=150] (g2 f ^d2 e) | B3 B2 B |!<(! (B3 ^A2 B) | %133
[Q:3/8=142] (^c3!<)!!>(! d3)!>)! |"^a tempo."!p![Q:3/8=158] ^c3- cde | d3- def | %136
"_cresc." (e2 f g2 f | e2 d ^c2 d) | ^c3 cde | d3 def |"_sempre più crescendo"!<(! (e2 f g2 f | %141
 g2 ^a b2 a | b2 ^c' d'2 c'!<)! |"_rin"!f! d'2 ^c' d'2 d'-) |!p! d'2 (d- d^cB) | (B2 ^G =A2 f-) | %146
 (f2 =c B2 A) | (A2 F =G2 e-) | e2 (_B- BAG) | (G2 E =F2 =f- |!<(! f6- | f2 e d2 g)!<)! | %152
!p! z2 z (g2 d | .g2) z g2 z |!pp! z2 z (g'2 d' | .g'2) z g'2 z |"_cresc." z2 z (G2 D) | %157
!mf! ^F2 z F2 z |[I:staff +1] F,^G,^A,[I:staff -1] B,^CD | EF^G ^AB^c | def ^ga^a | b^ab ^c'd'e' | %162
 [ff']2 z [ff']2 z | [ff']2 z [ff']2 z | [dd']3 T^c'3{bc'} | b3 =a2 =g | f2 z [Ff]2 z | b2 z x2 x | %168
 (dBf) (fdb) |"_dim." be'd'!mf! ^c'd'b | ^agf!mp! ed^c |!p! x2 x x2 x | x2 x x2 x | (e6 | d6 | %175
 ^c3 ^A3 | B6) | (=A6 | G6 | F3 ^D3) | E6 |[K:bass] A,6 | (G6 | =F3 D3) | %184
[K:treble]!mp![Q:3/8=150] E3"_una corda" (c3- | c3 B3) | z2 z (c3 | e3) ^d3 | E6 | =F6 | %190
"_sempre più piano"!p! (d6 | c6 | B3 ^G3) | A6 | [B,=G]6 | [A,F]6 |[Q:3/8=142] [B,E]3 [B,G]3 | %197
[Q:3/8=80] !fermata![^A,F]6 |[Q:3/8=150]!pp!!pp! [Be]6 | [A^df]6 | [Bg]3 [Be]3 | [^Af]6 | %202
 [Be]3 [Bg]3 |!pp! [^A^cf]2 z z2 z | [Bdf]2 z z2 z | [^A^cf]2 z z2 z | %206
!ff!"^tutte le corde"[Q:3/8=158] (G3- GEB) | (B3- BGe) | (e2 f g2 f) | (e3 ^d2) z | (c3- cAe) | %211
 (e3- eBb) | bc'a gfb |!ff! [Ee]3 [ee']3- | [ee']3 [=d=d']2 z | [cc']2 z [Aa]2 z | [Bb]6 | %217
 [Aa]3 [aa']3- | [aa']3 [gg']3 | [ff']2 z [^d^d']2 z | [ee']2 z [Bb]2 z | %221
!p![Q:3/8=150]"_espressivo" (e2 =d B2 c) | G3 G2 G | (G3!<(! ^F2 G!<)! |!mp!!>(! A3!>)!!p! G3) | %225
[K:bass][Q:3/8=158]"^a tempo." (=E,2 D, B,,2 C,) | G,,3 z2 z |[K:treble] (E2 D B,2 ^C) | %228
 ^A,3 A,2 A, |"_cresc." (c2 B ^G2 =A) |!mp! A3 A2 A |!mf! (a2 g e2 f) | f3 f2 f |!p! f3- fga | %234
 g3- gab |"_cresc."!<(! a2 b c'2 b | a2 g f2 g | f3"_sempre più cresc." fga | g3 gab | %239
 (a2 b c'2 b | a2 g f2 g | [Ba]2 [Bb] [cc']2 [Bb] | [cc']2 [^d^d'] [ee']2 [dd'] | %243
 [ee']2 [ff'] [gg']2 [ff']!<)! |!f! [gg']2 [ff'] [gg']2) [bg'-] |!p! [^ag']2 (g- gfe) | %246
 (e2 ^c d2) =f'- | f'2 (=f- fed) | (d2 B c2) _e'- | e'2 (_e- edc) | (c2 A _B2) _b- |!<(! b6- | %252
 (b2 a g2 c')!<)! |!p! z2 z (c'2 g | .c'2) z c'2 z |!pp! z2 z (c2 G | .c2) z c2 z | %257
[K:bass]!mp!"_cresc." z2 z (C2 G,) |!mf! =B,2 z B,2 z |[K:treble] B,^C^D EFG | AB^c ^def | %261
 gab ^c'd'^d' | e'^d'e' f'g'a' |!ff!!8va(! [bb']2 z [bb']2 z | [bb']2 z [bb']2!8va)! z | %265
 [gg']3 !trill(!Tf'3 | e'3 d'2 c' | .[Bb]2 z .[Bb]2 z | [ee']2 z z2 z |!p! [A,^DF]2 z [A,DF]2 z | %270
 [G,B,]2 z z2 z | z6 | B3 B3 | [Be]3 [Ae]3 |"_cresc." [Geg]3 [Geg]3 | [egc']3 [egc']3 | %276
 [ec'e']3 [ebe']3 |!f!"_staccato" .[eae']2 z .[^df^d']2 z | .[ege']2 z z2 z |] %279
[K:E][M:3/4][Q:1/4=60]"^mezza voce""^Andante molto cantabile ed espressivo.""^Gesangvoll mit innigster Empfindung."!p! (G2 E3 F) | %280
 [F,D]2 [F,A,B,]4 | ([G,B,G]2 E3 F) |!<(! (F2 ^A2[Q:1/4=56] B2) | %283
[Q:1/4=42] (3(B,/4E/4G/4[Q:1/4=72] B2!<)![Q:1/4=60]!mp!!>(! E3 G/F/)!>)! | %284
!p! (D2[Q:1/4=120] B,2[Q:1/4=54] (3:2:4=A,/B,/A,/4G,/4[Q:1/4=60] A,2) | %285
"_crescendo"!<(! (G,2 E3!<)![Q:1/4=54] ^A,) |[K:bass]!p! (^A,4 B,2) :: %287
[K:treble][Q:1/4=60]!p! (B2 B3 c | B2 =A3 B) | (A2 G3) (e |!mp! G2!>(! ^^F2 G2)!>)! | %291
[Q:1/4=40]!p! (3=A,/4C/4"^"^F/4[Q:1/4=70]"_cresc." A2[Q:1/4=60] A3[Q:1/4=100] c | %292
[Q:1/4=60][I:staff +1] D,/4-[Q:1/4=72]F,/4-A,/4-B,/4-[Q:1/4=60][I:staff -1] (3D/4F/4[Q:1/4=40]A/4[Q:1/4=60]!mf!!>(! (c3 B) (.[FA]!mp!.[EG])!>)! | %293
"_mezza voce"!mp! (G>A) B3[Q:1/4=54] A | ([B,DFA]4 [B,EG]2) :: %295
[Q:1/4=75]"^Molt' espressivo.""^VAR.Ⅰ."!mp! x/[Q:1/4=60]!>(!{/=B} b4!>)! e>f | %296
 (e2 d2- d>)[Q:1/4=100]B | %297
[Q:1/4=80]!mp! x/[Q:1/4=60]!>(!{/B} b3!>)![Q:1/4=50] (d[Q:1/4=46] (5:4:5(e/4f/4e/4d/4e/4)f/g/) | %298
[Q:1/4=60]"_cresc." (g2 f3[Q:1/4=100] d) |[Q:1/4=80]!mp! x/[Q:1/4=60]!>(!{/B} b3!>)! g(.f>.e) | %300
!mp! (e d2) (.c.B.A) | (AGFB ^Ae) |1 (fef=g) [Bd]>[Q:1/4=100]B :|2 %303
[Q:1/4=60] (fef=g) [Bd]>[Q:1/4=100]B | %304
[Q:1/4=80] x/[Q:1/4=60]{/B} b3 B!<(! ^B>!<)![Q:1/4=100]!>(!c!>)! |: %305
[Q:1/4=80]!mp! x/[Q:1/4=60]{/c} a3 A!<(! ^A>!<)![Q:1/4=100]!>(!B!>)! | %306
[Q:1/4=80] x/[Q:1/4=60]{/B} !>!g3 (G[Q:1/4=58] =A>e) | %307
[Q:1/4=56]"_cresc." ([Ee][Dd]- [Dd][C^^F] [B,G][Q:1/4=90][=A,=A]) | %308
[Q:1/4=80] x/[Q:1/4=60]{/a} a'3!<(! (ga>c') | (^a>c') (a>!<)!!>(!b) (=a>[Q:1/4=90]g)!>)! | %310
[Q:1/4=60]"_mezza voce"!mp! x/4{/g} g'{/g}e'- e'/d'/c'- c'/b/a- |1 %311
 (a^a- a/b/.f)"_cresc." (g>[Q:1/4=100]f) | %312
[Q:1/4=80] x/[Q:1/4=60]{/B} b3 B!<(!^B>!<)![Q:1/4=100]!>(!c!>)! :|2 %313
!mp![Q:1/4=60] (a^a-[Q:1/4=56] a/b/.f)[Q:1/4=50] g2 |] %314
"^VAR.Ⅱ.""^Leggieramente.\n"!p![Q:1/4=60] z/ B,/G/ z/ z/ E/B,/ z/ z/ C/F/ z/ | %315
 z/ D/[I:staff +1]F,/[I:staff -1] z/ z/[I:staff +1] E,/B,/[I:staff -1] z/ z/[I:staff +1] B,/F,/[I:staff -1] z/ | %316
 z/ G/g/ z/ z/ e/B/ z/ z/ c/f/ z/ |"_cresc." z/ d/f/ z/ z/ ^a/e/ z/ z/ [df]/b/ z/ | %318
 z/ b/e/ z/ z/ g/e'/ z/!>(! z/ e'/f'/ z/!>)! |"_dim." z/ e'/d'/ z/ z/ d'/c'/ z/ z/ b/=a/ z/ | %320
"_cresc." z/ a/g/ z/ z/ g/a/ z/ z/ _b/e'/ z/ | %321
"_dim." z/ [_be']/[a=f']/ z/ z/ [b=g']/[be']/ z/!p![Q:1/4=56] z/ =b'/=b/ z/ | %322
[Q:1/4=56] (^GE)[Q:1/4=60]EE TE3/2D/4E/4 | E4 D2 | (BG)GG TG3/2F/4G/4 | G4 F2 | %326
 z/ [GBg]/z/[GBe]/ z/ [GBd]/z/[GBe]/ z/ [GBd]/z/[GBe]/ | %327
 z/ [Ada]/z/[Adf]/ z/ [Ad^e]/z/[Adf]/ z/ [Ade]/z/[Adf]/ | %328
"_cresc." z/ [B=egb]/z/[Beg]/ z/ [Beg]/z/[Beb]/ z/ [^Ae=g^a]/z/[eae']/ | %329
!mp!"_dim." z/ [e^ae']/z/[faf']/[Q:1/4=56] z/ [=ga=g']/z/[eae']/!p![Q:1/4=54] z/ [eae']/z/[dbd']/ | %330
!pp![Q:1/4=60] z/ f/b/ z/ z/ b/f/ z/ z/ b/c'/ z/ | z/ a/c'/ z/ z/ c'/^a/ z/ z/ =a/b/ z/ | %332
 z/ g/b/ z/"_cresc." z/ g'/b/ z/ z/ b/g'/ z/ | %333
!p! z/ b/d'/ z/[Q:1/4=58] z/ g/"_dim."[^A^^f]/ z/[Q:1/4=56] z/ [Af]/[Bg]/ z/ | %334
[Q:1/4=60]"_cresc." z/ g/=a/ z/ z/ a'/a/ z/ z/ a/c'/ z/ | %335
 z/ ^a/b/ z/ z/ b'/b/ z/"_dim." z/ =a'/g'/ z/ | %336
 z/ [ge']/[e'g']/ z/ z/ [ge']/[eg]/ z/ z/ [g=b]/[fa]/ z/ | %337
!p! z/ [fa]/[af']/ z/[Q:1/4=56] z/ [af']/[fa]/ z/[Q:1/4=54] z/ [fa]/[Bg]/ z/ | %338
[Q:1/4=54] (=d=D)[Q:1/4=60]DD TD3/2C/4D/4 | (BG)GG TG3/2F/4G/4 | (G2 F2 E2) | %341
 (ge) (.e.d)[Q:1/4=50] Td3/4c/8d/8 Te3/4d/8e/8 | %342
[Q:1/4=60]"_cresc." z/ [Ace]/z/[Aa]/ z/ [Gg]/z/[Aa]/ z/ [^B^b]/z/[cc']/ | %343
 z/ [cc']/z/[=B=b]/ z/ [cc']/z/[Bb]/ z/!>(! [Aa]/z/[Gg]/!>)! | %344
!p! z/ [ff']/z/[ee']/ z/ [gg']/z/[Gg]/ z/ [=d^egb]/z/[=c^dfa]/ | %345
"_cresc." z/ [Bdfa]/z/[=cdfa]/[Q:1/4=56] z/ [Bdfa]/"_dim."z/[DFA]/[Q:1/4=54] z/!p! [DFA]/[Q:1/4=50]z/[Q:1/4=30][B,EG]/ || %346
[M:2/4]!f!"^VAR.Ⅲ."[Q:1/4=138]"^Allegro vivace." E z G z | B z d z | e z g z | .^a.a.b z | %350
!f! g/b/a/g/ e/g/f/e/ | d/f/e/d/ B/d/c/B/ | G/B/A/G/ E/G/F/E/ | =G/E/D/E/ D/F/B/D/ | .E.F.^G.A | %355
 .B.c.^^c.d | .e.f.^^f.g |!f! .a.^a.b.=a |!p!"_cresc." g/b/a/g/ f/e/d/e/ | d/f/e/d/ c/B/^A/=A/ | %360
 G/B/A/G/ F/E/D/E/ |!f! =G/E/G/E/ ^A/E/B/E/ |!p! .B.B.B.c | .B.A.A.B | .A.^G.G.^A | %365
"_cresc." .G.^^F.G[B,GB]- |!f! [B,GB]/=A/c/B/ A/G/"^"^F/E/ | D/B,/C/D/ E/F/G/A/ | %368
 B/^A/B/c/ d/e/f/e/ | d/B/c/d/ e/d/e/f/ |!p! g/b/=a/g/ f/^e/d/e/ | f/a/g/f/ =e/d/c/d/ | %372
 e/g/f/e/ d/c/^B/c/ |"_cresc." d/^A/d/c/ =B/d/e/=d/ |!f! c .[=A=a].[Aa].[cc'] | %375
 .[cc'].[Bb].[Aa].[Gg] | .[Gg].[Ff].[Ff].[Gg] | .[=A=a].[Bb][Q:1/4=120].[Gg][Q:1/4=80] (B- || %378
[M:9/8][Q:3/8=44]"^VAR.Ⅳ.""^Un poco meno andante ciò è un poco più adagio come il tema.""^Etvas langsamer als das Thema."!p! B/d/e/G/A/B/) (E3- EGF) |: %379
 z2 z A3- (AcB) | (A2 G) e3- (egf) | e3 a3- (ac'b) | (a2 g)"_cresc." (g/a/b/e/f/g/) B z z | %383
 (A/B/c/F/G/A/) (f/g/a/f/g/a/ b/c'/d'/b/c'/d'/) | %384
!mf![Q:3/8=42] (e'/f'/g'/e'/f'/g'/ g/a/b/g/a/"_dim."b/)[Q:3/8=40] (([Bb]2 [^A^a])) |1 %385
!p! (_b/=g/e/_B/e/g/ b/g/=a/=f/g/e/)[Q:3/8=36] ([e^a][^d=b])(=B- | %386
[Q:3/8=44] B/d/e/^G/A/B/) (E3- EGF) :|2 %387
[Q:3/8=40]!p! (_b/=g/e/_B/e/g/ b/g/=a/=f/g/e/)[Q:3/8=36] ([e^a][^d=b])[Q:3/8=30].=B | %388
!pp![Q:3/8=32] =d/[Q:3/8=36][^E^GB]/d/[EGB]/d/[EGB]/ ^b/c'/=d'/c'/d' c/[FA]/c/[FA]/c/[FA]/ |: %389
!pp![Q:3/8=36] c/[^DFA]/c/[DFA]/c/[DFA]/ b/^b/c'/b/c' B/[EG]/B/[EG]/B/[EG]/ | %390
"_cresc." e/[E^^Fc]/e/[EFc]/!>!e/[EFc]/ e/[EFc]/e/[EFc]/!>!e/[EFc]/ e/[EFc]/e/[EFc]/d/[DFc]/ | %391
!f![Q:3/8=38] d/[DGB]/d/[DGB]/d/[DGB]/ d/[D^^F^A]/d/[DFA]/d/[DFA]/!f![Q:3/8=40] d/[DGB]/d/[DGB]/e/[EGB]/ | %392
!ff![Q:3/8=40] (=a/b/c'/f/g/a/) c x x"_dim." (A/B/c/A/B/c/) | %393
"_dolce"!mp! c2 B (f/g/a/f/g/a/)[Q:3/8=38] (g/a/b/c'/[Q:3/8=36]d'/e'/) | %394
 (e'/d'/[Q:3/8=40]c'/b/a/g/) b3 a3 |1 %395
[Q:3/8=38] (a/f/!<(!d/B/A/F/[Q:3/8=36] D/B,/D/F/A/B/[Q:3/8=34] d/!<)!!>(!b/.g)!>)!!pp![Q:3/8=30] =d/[^EGB]/ | %396
[Q:3/8=32] =d/[^E^GB]/[Q:3/8=36]d/[EGB]/d/[EGB]/ ^b/c'/=d'/c'/d' c/[FA]/c/[FA]/c/[FA]/ :| %397
[Q:3/8=36]!mp! (a/f/!<(!d/B/A/F/[Q:3/8=36] D/B,/D/F/A/B/[Q:3/8=34] d/!<)!!>(!b/.g)!>)![Q:3/8=30] z || %398
[M:2/2][K:bass]!f![Q:1/2=88]"^VAR.Ⅴ.""^Allegro, ma non troppo." z8 | A,4 F,4- | F,2 G,D, E,2 =D,2 | %401
 C4 A,4- | A,2 ^A,2 B,2 =A,2 | G,2 B,2 B,2 E2 | (E6 =F2) |[K:treble] (=G2 A2 _B2 =B2) | %406
[K:bass] z8 | A,4 F,4 |[K:treble] z Bcd efge |!f! aBde fgaf | bdef gabg | =c'efg abc'a | %412
 =d'^f=ga b=c'd'b | e'=d'e'=f'!8va(! =g'^a'b'^d'!8va)! | =d'^f^g^a!f! b^c'd'f | ^e C^D^E FGAC | %416
 ^B,2 D4 CE | z D^E^^F G^ABG | =a4 c4- | c2 [GB]2 [FA]2 [EG]2- | %420
 [EG][Ge][Af][Bg] [ca][db][ec'][fd'] | [c'e'][bd'][c'e'][d'f'] [e'g'][f'a'][g'b'] b |!f! b4 =d4- | %423
 d2 cB A2 z2 | ^d4 G2 [ce]2- | [ce]2 dc [GB]2 [dg]2 | [e=a]4 [F=A]4 | [gb]4 [Be]4 | %428
 [a^c'a']4 ([ac'][fa])[ac'][ac'] | [ac']2 [gb][fa] [Bg]2 [cf^a]2 |!p! b4 =d4- | d2 cB =A2 z2 | %432
 ^d4 G2 e2- | [ce]2 [Bd]c [GB]2 g2 | [ea]4 [F=A]4 | [gb]4 [Be]4 | %436
[Q:1/2=80] [a^c'a']4[Q:1/2=74] ([ac'][fa])[ac'][ac'] | %437
[Q:1/2=68]!>(! [ac']2 [gb][fa]!>)![Q:1/2=60] [eg][Q:1/4=92] [EB]2 B || %438
[M:3/4]"^Cantabile""^Tempo primo del tema.""^VAR.Ⅵ."[Q:1/4=60]!p! (.B2 .B2 .B2) | (.B2 .B2 .B2) | %440
 BB BB BB | BB BB B[dfb] ||[M:9/8][Q:3/8=60] ([eb]3 e3 g2 f) | d3 b3 a3 | g3 e'3- e'2 e' | %445
 e'3 ^a3 |[M:3/4][Q:1/4=60]!p! b2 | %447
!p! B/4c/4B/4c/4B/4c/4B/4c/4!<(! B/4c/4B/4c/4B/4c/4B/4c/4 B/4c/4B/4c/4B/4c/4B/4c/4 | %448
 B/4c/4B/4c/4B/4c/4B/4c/4 B/4c/4B/4c/4B/4c/4B/4c/4 B/4c/4B/4c/4B/4c/4B/4c/4 | %449
 B/4c/4B/4c/4B/4c/4B/4c/4 B/4c/4B/4c/4B/4c/4B/4c/4 B/4c/4B/4c/4B/4c/4B/4c/4 | %450
 B/4c/4B/4c/4B/4c/4B/4c/4 B/4c/4B/4c/4B/4c/4B/4c/4 (3!trill(!Tz bb | (3b^ab (3bee (3eg!trill)!f | %452
 (3!trill(!Tfdd (3dbb (3(b^a=a) | (3ag!trill)!g!mf! (3!trill(!Tge'e' (3(e'd'e') | %454
 (3e'd'e' (3e'^a!trill)!a[Q:1/4=50] (3(ab[Q:1/4=45][=d^eg=d'])!<)! | %455
[Q:1/4=40]!f! .[=d^eg=d']/4[Q:1/4=60]b/4g/4e/4 .d/4e/4g/4b/4 .g/4e/4d/4B/4 .G/4B/4d/4e/4 .d/4B/4G/4^E/4 .c/4B/4G/4[Q:1/4=50]E/4 | %456
 .c'/4[Q:1/4=60]=a/4f/4c/4 .^B/4c/4f/4a/4 .f/4c/4A/4F/4 .^E/4F/4A/4c/4 .=c/4A/4F/4=E/4 .=B/4A/4F/4D/4 | %457
 .g/4e/4B/4G/4 .^^F/4G/4B/4e/4 .B/4G/4E/4B,/4 .^A,/4B,/4E/4G/4 .^B,/4^C/4E/4=A/4 .G/4A/4^c/4e/4 | %458
 G/4A/4c/4e/4 ^^F/4G/4B/4e/4 F/4G/4B/4e/4"^" ^F/4^^F/4^A/4e/4"^" ^F/4^^F/4A/4e/4 F/4G/4B/4[Q:1/4=50]e/4 | %459
 =A,/4[Q:1/4=60]F/4D/4=A/4 D/4A/4F/4d/4 F/4d/4A/4f/4 A/4f/4d/4a/4 d/4a/4f/4d'/4 f/4d'/4a/4f'/4 | %460
!8va(! a/4f'/4d'/4a'/4=c'/4f'/4d'/4a'/4 b/4f'/4d'/4a'/4^a/4f'/4d'/4=a'/4 =a/4f'/4d'/4a'/4g/4e'/4b/4g'/4 | %461
 g/4e'/4b/4g'/4 b/4g'/4e'/4b'/4 ^a/4^^f'/4e'/4^a'/4 =a/4"^"^f'/4d'/4=a'/4 g/4^e'/4=d'/4g'/4 a/4f'/4^d'/4a'/4 | %462
 a/4f'/4d'/4a'/4!8va)! f/4d'/4a/4f'/4 d/4a/4f/4d'/4 A/4f/4d/4a/4[Q:1/4=40] g/4[Q:1/4=60]B/4c/4d/4 =e/4f/4g/4^a/4 | %463
!8va(! !trill(!Tz b' z b' z c'' | z c'' z a' z !trill)!b' | !trill(!Tz b' z g' z a' | %466
 z g' z ^^f' z !trill)!g' | !trill(!Tz a' z a' z c'' | z b' z a' z !trill)!g' | %469
 !trill(!Tz g' z b' z a' | z a' z"^" ^f' z !trill)!d'!8va)! |"_dim." !trill(!Tb6 | %472
 !trill(!Tz a z f z !trill)!d | !trill(!TB6[Q:1/4=48][Q:1/4=36]{^AB} | %474
"^cantabile"[Q:1/4=56] (G2 E3 F) | [F,D]2 [F,A,B,]4 | ([B,G]2 E3 F) | (F2 ^A2 B2) | %478
 ([EGB]2 E3 G/F/) | %479
[K:bass] [F,D]2[Q:1/4=120] [E,B,]2[Q:1/4=46] (3:2:4A,/B,/A,/4G,/4[Q:1/4=56] [F,A,]2 | %480
"_cresc." G,2 E3!p! ^A, | ^A,4 B,2 |[K:treble]!pp! (B2 B3 c | B2 A3 B) |!<(! A2 G3 e!<)! | %485
!p!!>(! G2 ^^F2!>)!!pp! G2 |[Q:1/4=44] (3=A,/4C/4"^"^F/4[Q:1/4=68]"_cresc." A2[Q:1/4=56] A3 c | %487
[Q:1/4=60][I:staff +1] D,/4-[Q:1/4=70]F,/4-A,/4-B,/4-[Q:1/4=60][I:staff -1] (3D/4F/4[Q:1/4=40]A/4[Q:1/4=54]!>(! (c3 B) (.A.G)!>)! | %488
!pp! G>A[Q:1/4=50] B3 A |"^ritard."[Q:1/4=48] ([B,DFA]4[Q:1/4=30] [B,EG]2)[Q:1/4=44] |] %490
V:2
 (G<B) | (B<F) (E<G) | (G<D) (C<E) | (E<B,) (A,<B,) | (G,<B,) (G<B) | (B<F) E2 | D2 (B<d) | %7
 (e<B) (G<g) | (f<[Bd]) c2 ||[M:3/4] x7 | x2 x c x2 | x6 | x6 | x6 | x2!8va(! x5/2!8va)! x3/2 | %15
 x10 |[M:2/4] x2 | x4 | x4 | x4 | x4 | x4 | x2 (^A<D) | (B<D) (^^F<E) | (G<D) (E<C) | %25
 (^E<B,) (B,<G,) | (^A,<^^F,) (A,<F,) | (B,<G,) (D<^A,) | (D<B,) (D<^A,) | (D<B,) (F<C) | %30
 (F<D) (F<C) | (F<D) (^A<^E) | (^A<F) (A<^E) | (^A<F) (c<G) | (c<^A) (d<B) | (B<G) (c<^A) | %36
 (d<B) (f<c) | (f<d) (g<e) | (e<c) (f<d) | (g<e) (b<f) | (f<d) (g<e) | (b<a) (b<g) | %42
 (=c'<a) (e'<^a) |!8va(! (d'<b) (^g'<b) | (a'<b) (f'<b) | (d'<b) (g'<b) | ((a'<b)) ((f'<b)) | %47
 ((d'<b)) ((g'<b)) | (((a'<b))) (((e'<b))) | (((f'<b))) g'2 | b'2 e'2 | g'2!8va)! c'2 | e'2 (b<a) | %53
 (b<g) x2 | x4 | x2 c'2 | e'2 =a2 | [gb]2 [ea]2 | e2 d2 ||[M:3/4] x x4 cc/[c^e]/ | %60
 x2 x f B/[AB]/[GB]/[A=e]/ | x6 ||[K:C] x6 | x6 ||[K:E] x6 | x6 | x9 ||[M:2/4] x2 c'2 | e'2 a2 | %69
 b2 x2 | x4 | x2 f2 | g2 a2 | b2 x2 | x4 | x2 [Bdf]2 | [Beg]2 [Bfa]2 | x4 | x4 | x4 | x4 | x4 | %82
 x4 | x2[I:staff +1] F,2 | [E,G,B,]2 [F,=A,]2 | [G,B,]2 F,2 | x4 |[I:staff -1] [=A,DF]4 | %88
 (G<B,) A,2 |[K:bass] (F<[A,=C]) G,2 | (D<[F,A,]) E,2 | (A,<E,) (A,<F,) | (C<G,) (B,<G,) | %93
 (A,<F,) (A,<F,) | (C<G,) (B,<G,) |[K:treble] (A<B,) (G<B,) | (c<G) (B<G) | (a<B) (g<B) | %98
 (c'<g) (b<g) | (c'<g) (b<g) | x2[K:bass] x2 | x2 |][K:G][M:6/8][K:treble] x6 | x6 | z2 z c3 | F6 | %106
 x6 | x6 | e3 ^d3 | x6 | x6 | x6 | F3 G3 | F3 G3 | x6 | x6 | F3 G3 | F3 G x2 | z FE ^D2 z | %119
 z GF E2 z | z F2- F G2- | G F2 G3 | z FE ^D2 z | z GF E2 z | z F2- F G2- | G!>(! F2!>)! G2 x | %126
[K:bass] x6 | x6 | x6 | x6 |[K:treble] x6 | z z A G2 F | G2 F E2 D | ^C3 B3- | BF^A F3- | FFB F3- | %136
 F3 ^A2 B | ^c F2- F3 | ^c^AF- F3 | dBF- F3- | F2 F G2 F | G2 ^A B2 A | B2 ^c d2 c | d2 ^c d2 f | %144
 ^e2 x4 | x6 | x6 | x6 | x6 | x6 | x6 | x6 | x6 | x6 | x6 | x6 | (B,D=C B,^A,B,) | DB,F, ^C^A,F, | %158
 x6 | x6 | x6 | x6 | x6 | x6 | x3 x/x/x/x/(3x/x/x/ | x6 | x6 | (B3- BFd) | x6 | x6 | x6 | (B6 | %172
 A6 | G3 E3 | F6) | (E6 | D6 | =C3 A,3 | B,6) | (A,6 | G,6 |[K:bass] =F,3 D,3) | (E6 | _A,6) | %184
[K:treble] G,3 (E3 | _A3 =F3) | x2 x (c3- | c3 B3 | B,3) =D3- | D3 C3 | z2 z =F3 | E3 A3 | %192
 [D=F]3 [B,D]3 | C3 ^F3- | F3 E3- | E3 ^D3 | x6 | x6 | x6 | x6 | x6 | x6 | x6 | x6 | x6 | x6 | x6 | %207
 x6 | z2 z c3 | F6 | x6 | x6 | e3 ^d3 | x6 | x6 | x6 | x6 | x6 | x6 | x6 | x6 | x6 | z z =F E2 D | %223
 E2 D C2 D | _E3 D3 |[K:bass] x6 | x6 |[K:treble] x6 | x6 | x6 | x6 | A6- | A6 | z B^d B3- | %234
 BBe B3- | B3 ^d2 e | f B2- B3 | f^dB- B3 | geB- B3- | B3 ^d2 e | f B2- B3 | x6 | x6 | x6 | x6 | %245
 x6 | x6 | x6 | x6 | x6 | x6 | x6 | x6 | x6 | x6 | x6 | x6 |[K:bass] (E,G,=F, E,^D,E,) | %258
 G,^F,E, ^D,E,F, |[K:treble] x6 | x6 | x6 | x6 |!8va(! x6 | x5!8va)! x | %265
 x3 x/x/x/x/(3x/x/!trill)!x/ | x6 | x6 | x6 | x6 | x6 | x6 | x6 | x6 | x6 | x6 | x6 | x6 | x6 |] %279
[K:E][M:3/4] B,2 B,2 C2 | x6 | x2 B,2 C2 | D2 [CE]2 [DF]2 | x/ z2 B,2 C2 | x7 | x6 | %286
[K:bass] (=G,2 E,2 D,2) ::[K:treble] z2 F2 ^G2 | z2 E2 F2 | z2 E2!<(! E2 | D2!<)! C2 B,2 | x13/2 | %292
 x15/2 | E2 (E2 D2) | x6 :: x/ x4 x2 | x6 | x/ !>!x3 x x2 | x6 | x/ x3 x x2 | x6 | x4 ^A2 |1 %302
 ^A4 x2 :|2 ^A4 x2 | x/ !>!x3 x x2 |: x/ !>!x3 x x2 | x/ !>!x3 x E2- | x6 | x/ x3 x2 x | x6 | %310
 x/<x/x/4x3/2 x/ x x2 |1 x6 | x/ !>!x3 x x2 :|2 x6 |] x6 | x6 | x6 | x6 | x6 | x6 | x6 | x6 | x6 | %323
 (AF) FF TF3/2^E/4F/4 | F4 E2 | (cA) AA TA3/2G/4A/4 | x6 | x6 | x6 | x6 | x6 | x6 | x6 | x6 | x6 | %335
 x6 | x6 | x6 | x6 | (D2 C2 B,2) | (cA)AA TA3/2G/4A/4 | GG ^^FF BB | x6 | x6 | x6 | x6 || %346
[M:2/4] x4 | x4 | x4 | x4 | x4 | x4 | x4 | x4 | x4 | x4 | x4 | x4 | x4 | x4 | x4 | x4 | x4 | x4 | %364
 x4 | x4 | x4 | x4 | x4 | x4 | x4 | x4 | x4 | x4 | x4 | x4 | x4 | x4 ||[M:9/8] x9 |: %379
 (E3 D3) (F/G/A/D/E/F/) | E z z (G/A/B/E/F/G/)[I:staff +1] B,[I:staff -1] x x | %381
 (F/G/A/F/G/A/) d3 f3 | (f2 e) x2 x (G/A/B/E/F/G/) | B,2 z x2 x x2 x | x9 |1 x9 | x9 :|2 x9 | x9 |: %389
 x9 | x9 | x9 | x2 x (=A/B/c/A/B/c/) C3 | (F/G/A/F/G/A/) B3 B z z | %394
 x2 x (g/f/e/g/f/e/) (f/e/d/f/e/d/) |1 x9 | x9 :| x9 ||[M:2/2][K:bass] G,4 E,4- | %399
 E,2 F,C, D,2 B,,2 | B,4 G,4- | [C,G,]2 A,E, F,2 =C,2 | z8 | z2 E,2 G,4- | (G,2 A,2 _B,2 A,2) | %405
[K:treble] E2 =F2 =G2 ^D2 |[K:bass] ^G,4 E,4- | E,2 ^F,^C, D,2 B,,2 |[K:treble] G4 x4 | x8 | x8 | %411
 x8 | x8 | x4!8va(! e'2 ^d' x!8va)! | x8 | x8 | x8 | x8 | z =AcB ACDE | FDEF B,DE(C | B,) x x2 x4 | %421
 x8 | z8 | G4 C2 A2- | A2 GF E2 z2 | ^A3 A D2 B2 | c4 (=CA,)DD | x8 | x8 | x8 | z8 | G4 C2 A2- | %432
 A2 GF E2 c2- | ^A3 A D2 [Bd]2 | c4 (=CA,)DD | e4 (GE)[I:staff +1] EE- | x8 | %437
[I:staff -1] x4 x z FF ||[M:3/4] G2 E2 F2 | D2 B,4 | (G2 E2 F2) | (F2 ^A2 BB) || %442
[M:9/8] BBB B^AB BBB | B/c/B/c/B/c/ B/c/B/c/B/c/ B/c/B/c/B/c/ | %444
 B/f/e/f/e/f/ e/f/e/f/e/f/ e/f/e/f/e/f/ | e/=g/e/g/e/g/ e/g/e/g/e/g/ | %446
[M:3/4] d/4^c/4"_cresc."B/4c/4B/4c/4B/4c/4 | (GE) (EG) (GF) | (FD) (DE) (ED) | (GE) (EG) (GF) | %450
 FF ^AA TB2 | TB6 | TB6 | TB2 Te4 | Te4 (3e{de}d x | x6 | x6 | x6 | x6 | x6 |!8va(! x6 | x6 | %462
 x!8va)! x5 |!8va(! Tb6 | Tb6 | Tb6 | Tb6 | Tb6 | Tb6 | Tb6 | Tb6!8va)! | z a z f z !trill)!d | %472
 TB6 | z =A z2!pp! z2 | B,2 B,2 C2 | x6 | x2 B,2 C2 | D2 [CE]2 [DF]2 | B,2 B,2 C2 |[K:bass] x7 | %480
 G,2 E,2 E,2 | =G,2 E,2 D,2 |[K:treble] z2 F2 ^G2 | z2 E2 F2 | z2 E2 E2 | D2 C2 B,2 | x13/2 | %487
 x11/2 FE | E2 E2 D2 | x6 |] %490
V:3
 z!ped! (E,/B,/) | z!ped-up!!ped! (D/D,/) z!ped-up!!ped! (C,/G,/) | %2
 z!ped-up!!ped! (B,/B,,/) z!ped-up!!ped! (A,,/E,/) | %3
 z!ped-up!!ped! (G,/G,,/) z!ped-up!!ped! (B,,,/B,,/) | %4
 z!ped-up!!ped! (E,/E,,/) z!ped-up!!ped! (E,/B,/) | %5
 z!ped-up!!ped! (D/D,/) z!ped-up!!ped! (C,/F,/) | z!ped-up!!ped! (B,/B,,/) z!ped-up!!ped! (F,/F/) | %7
 z!ped-up!!ped! (G/G,/) z!ped-up!!ped! (E,/E/) | %8
 z!ped-up!!ped! (F/F,/) z!ped-up!!ped! (F,,/F,/)!ped-up! || %9
[M:3/4] x z!mp!!ped! (.D/.E/)[K:treble] (.F/.G/A)!ped-up!!ped! G/A/G/F/!ped-up! | %10
[K:bass]!ped! z/ E,/ (C/D/)[K:treble] E/F/!ped-up!!ped![^A,=G]!ped-up![K:bass]!ped! ([=B,D]/[^A,C]/)(.B,/.[G,B,]/)!ped-up! | %11
!ped! [D,B,][G,B,] [F,B,][F,B,D]!ped-up!!ped! [F,^A,C]!ped-up!!ped![F,=A,^B,D]!ped-up! | %12
!ped! [F,,,F,,]4- [F,,,F,,]!ped-up! ([^E,,,^E,,]/[D,,,D,,]/) | %13
!ped! [D,,,D,,]2 D,,/8^^F,,/8^A,,/8D,/8 z/ D,/8^^F,/8^A,/8D/8 z/[K:treble] D/8^^F/8^A/8d/8 z/[K:bass] ([D,,^A,,D,]/!ped-up![D,,B,,D,]/) | %14
!ped! [D,,B,,D,]/[D,B,]/ z/ [G,B,E]/!ped-up!!ped! z/ [F,B,D]/!ped-up![K:treble]!ped! (3d'/4c'/4^a/4!ped-up!!ped! (3c'/4b/4g/4!ped-up!!ped! (3b/4a/4f/4!ped-up!!ped! (3a/4g/4e/4!ped-up!!ped! (3g/4f/4d/4!ped-up!!ped! (3f/4e/4c/4!ped-up! | %15
!ped! [Bd]/[K:bass] .F,/.G,/.^A,/ B,/ z/!ped-up!!ped! B,,,/ z/ z2!ped-up!!ped! x4!ped-up! | %16
[M:2/4][K:treble]!ped! D2!ped-up! |!ped! F2!ped-up!!ped! E2!ped-up! | %18
!ped! G2!ped-up!!ped! (F<=A)!ped-up! |!ped! (E<G)!ped-up!!ped! (F<G)!ped-up! | %20
!ped! (E<G)!ped-up!!ped! (D<G)!ped-up! |!ped! (E<G)!ped-up!!ped! (C<F)!ped-up! | %22
!ped! (D<G)!ped-up!!ped! z[K:bass] (^^F,/^A,/)!ped-up! | %23
!ped! z (G,/B,/)!ped-up!!ped! z (^A,,/C,/)!ped-up! | %24
!ped! z (B,,/D,/)!ped-up!!ped! z (C,/E,/)!ped-up! | %25
!p!!ped! z (^^C,/^E,/)!ped-up!!ped! z (^^C,,/C,/)!ped-up! | %26
!p!!ped! z (D,,/D,/) z (D,,/D,/)!ped-up! |!ped! z (G,,/D,/)!ped-up!!ped! z (D,,/D,/)!ped-up! | %28
!ped! z (G,,,/G,,/)!ped-up!!ped! z (D,,/D,/)!ped-up! | %29
!ped! z (G,,/G,/)!ped-up!!ped! z (F,,/F,/)!ped-up! | %30
!mp!!ped! z (B,,,/B,,/)!ped-up!!ped! z (F,,/F,/)!ped-up! | %31
!ped! z (B,,/B,/)!ped-up!!ped! z (^A,,/^A,/)!ped-up! | %32
!mf!!ped! z (D,,/D,/)!ped-up!!ped! z (^A,,/^A,/)!ped-up! | %33
!ped! z (D,/D/)!ped-up!!ped! z"^" (^C,/C/)!ped-up! | %34
!ped! z (F,,/F,/)!ped-up!!ped! z (F/F,/)!ped-up! | %35
!ped! z (F,,/F,/)!ped-up!!ped! z (F/F,/)!ped-up! | %36
!ped! z (F,,/F,/)!ped-up!!ped! z (F/F,/)!ped-up! | %37
!ped! z (B,,,/B,,/)!ped-up!!ped! z (B,/B,,/)!ped-up! | %38
!ped! z (B,,,/B,,/)!ped-up!!ped! z (B,/B,,/)!ped-up! | %39
!ped! z (B,,,/B,,/)!ped-up!!ped! z (B,/B,,/)!ped-up! | %40
!ped! z (=A,,/A,/)!ped-up!!ped! z (G,/G,,/)!ped-up! | %41
!ped! z (F,,/F,/)!ped-up!!ped! z (E,/E,,/)!ped-up! | %42
!ped! z (D,,/D,/)!ped-up!!ped! z (^C,/C,,/)!ped-up! | %43
!ped! z (B,,,/B,,/)!ped-up!!ped! z (^E,/^E,,/)!ped-up! | %44
!ped! z (F,,/F,/)!ped-up!!ped! z (D,/D,,/)!ped-up! | %45
!ped! z (B,,,/B,,/)!ped-up!!ped! z (^E,/^E,,/)!ped-up! | %46
!ped! z (F,,/F,/)!ped-up!!ped! z (D,/D,,/)!ped-up! | %47
!ped! z (B,,,/B,,/)!ped-up!!ped! z (^E,/^E,,/)!ped-up! | %48
!ped! z (F,,/F,/)!ped-up!!ped! z (C,/C,,/)!ped-up! |!ped! z (D,,/D,/)!ped-up! z!ped! (=E,,/=E,/- | %50
 E,!ped-up!!ped!D,,/D,/- D,!ped-up!!ped!C,,/C,/- | %51
 C,!ped-up!!ped!B,,,/B,,/- B,,!ped-up!!ped!A,,,/A,,/- | %52
 A,,!ped-up!!ped!G,,,/G,,/- G,,!ped-up!!ped!F,,,/F,,/- | %53
 F,,!ped-up!!ped!E,,,/E,,/)!ped-up!"_legato"!ped! (G,<B,)!ped-up! | %54
!ped! (B,<F,)!ped-up!!ped! (^A,<E)!ped-up! |!ped! (D<B,-) (B,!ped-up!!ped!A,,/A,/- | %56
 A,!ped-up!!ped!G,,/G,/- G,!ped-up!!ped!F,,/F,/- | %57
 F,!ped-up!!ped!E,,/)E,/ z!ped-up!!ped! (A,/A,,/) | %58
 z!ped-up!!ped! (B,,/B,/) z!ped-up!!ped! (B,,/B,,,/)!ped-up! || %59
[M:3/4] x[K:treble] z!ped! (.G/.A/) (.B/.c/=d)!ped-up!!ped! ([FA]/[GB]/)!ped-up!!ped!(.[FA]/!ped-up!!ped!.[C^EG]/)!ped-up! | %60
!ped! z (F/4^E/4F/4G/4 A/4G/4A/4B/4)!ped-up!!ped! =c!ped-up!!ped! ([=EG]/[DF]/)!ped-up!!ped!(.E/!ped-up!!ped!.[^CE]/)!ped-up! | %61
!ped! [G,E][CEA] [B,E][B,E^A]!ped-up!!ped! [B,DB]/!ped-up!!ped![B,=D^EG]/!ped-up![K:bass]!ped! [G,,,G,,]!ped-up! || %62
[K:C]!ped! [G,,,D,,F,,G,,]2- [G,,,D,,F,,G,,]/ (3F,/4D,/4B,,/4 G,,/8B,,/8D,/8F,/8 z/[K:treble] G/8B/8d/8f/8 z/[K:bass] ([G,,,G,,]/!ped-up![C,,C,]/) | %63
!ped! [C,,E,,G,,C,] x (3C,,/8E,,/8G,,/8 z/4"^dim." (3C/8E/8G/8 z/4!ped-up! ([G,,,G,,]/[^G,,,^G,,]/)!ped! [G,,,E,,G,,][G,,,E,,G,,]- || %64
[K:E] [G,,,E,,G,,]/[G,,B,,E,]/ z/!ped-up!!ped! [C,E,A,]/!ped-up!!ped! z/!ped-up!!ped! [B,,E,G,]/!ped-up![K:treble]!ped! (6:4:6g/4e/4f/4d/4e/4c/4!ped-up!!ped! (6:4:6d/4B/4c/4A/4B/4G/4!ped-up!!ped! (6:4:6A/4F/4G/4E/4F/4D/4!ped-up! | %65
[K:bass]!ped! (6:4:6E/4C/4D/4B,/4C/4A,/4!ped-up!!ped! (6:4:6B,/4G,/4A,/4F,/4G,/4E,/4!ped-up!!ped! (6:4:6F,/4D,/4E,/4C,/4D,/4B,,/4!ped-up!!ped! (6:4:6C,/4A,,/4B,,/4G,,/4A,,/4F,,/4!ped-up!!ped! (6:4:6G,,/4E,,/4F,,/4D,,/4E,,/4C,,/4!ped-up!!ped! (3B,,,/C,,/D,,/!ped-up! | %66
!ped! E,,,2 x2 !fermata!z4 x!ped-up! ||[M:2/4]!ped! z2!ped-up!!ped! z[K:treble] (A/e/)!ped-up! | %68
!ped! z (e/G/)!ped-up!!ped! z (F/d/)!ped-up! |!ped! z (e/E/)!ped-up!!ped! (c<e)!ped-up! | %70
!ped! (e<B)!ped-up!!ped! (A<B)!ped-up! |!ped! (B<G)!ped-up!!ped! z (d/B/)!ped-up! | %72
!ped! z (e/B/)!ped-up!!ped! z (f/B/)!ped-up! |!ped! z (g/B/)!ped-up!!ped! (F<B)!ped-up! | %74
!ped! (G<B)!ped-up!!ped! (A<B)!ped-up! |!ped! (B<e)!ped-up!!ped! z ([FA]/B,/)!ped-up! | %76
!ped! z ([EG]/B,/)!ped-up!!ped! z ([DF]/B,/)!ped-up! |[K:bass] z2!ped! [B,,F,A,]2!ped-up! | %78
 z2!ped! [B,,E,G,]2!ped-up! | z2!ped! [^B,,D,F,A,]2!ped-up! | %80
!ped! [C,E,G,]2!ped-up!!ped! [C,-^E,]2 | [C,F,]2 [=D,^E,G,]2 | [C,F,]2 [B,,=D,^E,]2 | %83
 [A,,C,F,]2!ped-up!!ped! [^A,,,^A,,]2!ped-up! |!ped! [B,,,B,,]2!ped-up!!ped! [=C,,=C,]2!ped-up! | %85
!ped! [B,,,B,,]2!ped-up!!ped! [A,,,A,,]2!ped-up! |!ped! [G,,,G,,]2!ped-up!!ped! (F,,>G,,) | %87
 =A,,2 B,,2!ped-up! |!ped! z (E,,/E,/)!ped-up!!ped! z (=C,/E,,/)!ped-up! | %89
!ped! z (E,,/D,/)!ped-up!!ped! z (E,/E,,/)!ped-up! | %90
!ped! z (E,,/=C,/)!ped-up!!ped! z (B,,/E,,/)!ped-up! | %91
!ped! z (E,,/=C,/)!ped-up!!ped! z (D,/E,,/)!ped-up! | %92
!ped! z (E,,/E,/)!ped-up!!ped! z (E,/E,,/)!ped-up! | %93
!ped! z (E,,/D,/)!ped-up!!ped! z (D,/E,,/)!ped-up! | %94
!ped! z (E,,/E,/)!ped-up!!ped! z (D,/E,/)!ped-up! |!ped! z (D,/E,/)!ped-up!!ped! z (D/E/)!ped-up! | %96
!ped! z (E,/E/)!ped-up!!ped! z (D/E/)!ped-up! | %97
!ped! z[K:treble] (D/E/)!ped-up!!ped! z (d/e/)!ped-up! | %98
!ped! z (E/e/)!ped-up!!ped! z (d/e/)!ped-up! |!ped! z (d/e/)!ped-up!!ped! z (g'/b'/)!ped-up! | %100
 z2[K:bass]!ped! [E,,G,,B,,]2- | !fermata![E,,G,,B,,]2!ped-up! |] %102
[K:G][M:6/8]"_ben marcato" [E,,E,]6 | [D,,D,]6 | [C,,C,]3 [A,,,A,,]3 | [B,,,B,,]6 | [A,,,A,,]6 | %107
 [G,,,G,,]6 | [F,,,F,,]3 [B,,,B,,]3 | [E,,E,]2 z z2 z | z F,G, A,3 | z G,A, B,3 | A,3 ^A,3 | %113
 B,3 E,3 | z F,G, =A,3 | z G,A, B,3 | A,3 ^A,3 | B,3 E,3 | z F,G, A,3 | z G,A, B,3 | A,3 ^A,3 | %121
 B,3 E,3 | z F,G, A,3 | z G,A, B,3 | A,3 ^A,3 | B,3 [E,,E,]2 z | (G,,2 F,, ^D,,2 E,,) | %127
 B,,,3 B,,,2 B,,, | (B,,,3 A,,,2 B,,,) | (C,3 B,,3) | E,,2 z z2 z | z z F E2 ^D | E2 =D ^C2 B, | %133
 ^A,2 G, F,2 ^E, | F,3 ^A,B,^C | B,3- B,^CD | F,^CD F,ED | F,^CB, F,^A,B, | F,^A,^C A,B,C | %139
 F,B,D B,^CD | F,^CD F,ED | F,EF F,GF | F,[K:treble]G^A BB,A | BB,^A B2[K:bass] B,, | %144
 ^C,^E,^G, C,^D,E, | ^C,A,F, =C,F,^D, | B,,^D,F, B,,^C,D, | B,,=G,=E, _B,,E,^C, | %148
 A,,^C,E, A,,=B,,C, | A,,=F,D, _A,,D,B,, | G,,=A,,B,, =C,D,B,, | G,,C,E, G,,B,,D, | %152
 =F,,G,,B,, D,B,,G,, | E,,G,,C, E,C,G,, | =F,,G,,B,, D,B,,G,, | E,,G,,C, E,C,G,, | [=F,,,=F,,]6 | %157
 [^F,,,^F,,]6 |!f! F,,2 z [F,,F,]2 z | [F,,F,]2 z [F,,F,]2 z | [D,,D,]3 [^C,,^C,]3 | %161
 [B,,,B,,]3 [=A,,,=A,,]2 [=G,,,=G,,] | [F,,,F,,]^G,,^A,, B,,^C,D, | E,F,^G, ^A,B,^C | %164
[K:treble] DEF ^GA^A | B^AB ^cde | F2 z[K:bass] [F,,F,]2 z | [B,,,B,,]6 | [A,,,A,,]6 | %169
 [G,,,G,,]3 E,,3 | F,,3 ^G,,2 ^A,, |!ped! B,,,B,,B,,, B,,B,,,B,,!ped-up! | %172
!ped! B,,,B,,B,,, B,,B,,,B,,!ped-up! |!ped! B,,,B,,B,,, B,,B,,,B,,!ped-up! | %174
!ped! B,,,B,,B,,, B,,B,,,B,,!ped-up! |!ped! B,,,B,,B,,, B,,B,,,B,,!ped-up! | %176
!ped! B,,,B,,B,,, B,,B,,,B,,!ped-up! |!ped! B,,,B,,B,,, B,,B,,,B,,!ped-up! | %178
!ped! B,,,B,,B,,, B,,B,,,B,,!ped-up! |!ped! B,,,B,,B,,, B,,B,,,B,,!ped-up! | %180
!ped! C,,C,C,, C,C,,C,!ped-up! |!ped! C,,C,C,, C,C,,C,!ped-up! |!ped! C,,C,C,, C,C,,C,!ped-up! | %183
!ped! C,,C,C,, C,C,,C, |{/C,,} C,6!ped-up! |!ped! D,6!ped-up! |!ped! G,6!ped-up! | %187
!ped! =A,6!ped-up! |!ped! ^G,6!ped-up! |!ped! A,6!ped-up! |!ped! z2 z ^G,3!ped-up! | %191
!ped! A,3 E,3!ped-up! | D,3 =F,3 | ^D,6 | E,,6 | ^F,,6 | G,,3 E,,3 | !fermata!F,,6 |[K:treble] G6 | %199
 F6 | E3 G3 | F6 | G3 E3 | F2 z z2 z | F2 z z2 z | F2 z z2 z |[K:bass] [E,,E,]6 | [D,,D,]6 | %208
 [C,,C,]3 [A,,,A,,]3 | [B,,,B,,]6 | [A,,,A,,]6 | [G,,,G,,]6 | [F,,,F,,]3 [B,,,B,,]3 | %213
 (G,,3- G,,E,,B,,) | (B,,3- B,,G,,E,) | (E,2 F, G,2 F,) | (E,3 ^D,2) z | (C,3- C,A,,E,) | %218
 (E,3- E,B,,B,) | B,CB, A,G,F, | G,A,G, =F,E,D, | C,2 z z2 z | z z D C2 B, | (C2 B, A,2 [G,B,] | %224
 [^F,C]3 [G,B,]3) | (=E,,2 D,, B,,,2 C,,) | G,,,3 [G,,,G,,]2 [G,,,G,,] | [G,,,G,,]6 | [F,,,F,,]6 | %229
 [=F,=A,]6 | [E,A,C]6 | [^D,^F,B,]6 | [C,E,A,]6 | [B,,^D,F,B,]2 z[K:treble] ^DEF | E3- EFG | %235
 B,FG B,AG | B,FE B,^DE | B,^DF DEF | B,EG EFG | B,FG B,AG | B,FE B,^DE | B,FG B,AG | B,AB B,cB | %243
 B,c^d eEd | eE^d e2[K:bass] E, | F,^A,^C F,^G,A, | F,DB, =F,B,^G, | E,B,^G, E,^F,G, | %248
 E,=CA, _E,A,F, | D,F,A, D,E,F, | D,_B,G, _D,G,E, | C,=D,E, =F,G,E, | C,=F,A, C,E,G, | %253
 _B,,C,E, G,E,C, | A,,C,=F, A,F,C, | _B,,C,E, G,E,C, | A,,C,=F, A,F,C, | [_B,,,_B,,]6 | %258
 =B,,A,,G,, ^F,,E,,^D,, |!f! [B,,B,]2 z [B,,B,]2 z | [B,,B,]2 z [B,,B,]2 z | %261
 [G,,,G,,]3 [F,,,F,,]3 | [E,,,E,,]3 =D,,2 C,, | B,,,^C,,^D,, E,,F,,G,, | A,,B,,^C, ^D,E,F, | %265
 G,A,B,[K:treble] ^CD^D | E^DE FGA |[K:bass] .[B,,B,]2 z .[B,,B,]2 z | [E,E]2 z z2 z | %269
 B,,2 z B,,2 z | E,2 z z2 z |!p! B,,3 B,,3 | B,,3 B,,3 | G,,3 F,,3 | E,,3 D,,3 | C,,3 B,,,3 | %276
 A,,,3 G,,,3 | [F,,,F,,]2 z .[B,,,B,,]2 z | .[E,,E,]2 z z2 z |] %279
[K:E][M:3/4]!ped! (E,,2 G,,2 A,,2!ped-up! |!ped! B,,2 C,2 D,2)!ped-up! | %281
!ped! (E,2 G,2 ^A,2!ped-up! |!ped! B,2 F,2 B,,=A,,)!ped-up! |!ped! x/ (G,,2 G,2) A,,2!ped-up! | %284
!ped! [B,,F,]2 [C,E,]3 [D,F,]2!ped-up! |!ped! x2 E,4!ped-up! |!ped! (E,,2 =G,,2 B,,2)!ped-up! :: %287
!ped! B,2 B,2 B,2!ped-up! |!ped! B,2 B,2 B,2!ped-up! |!ped! [=E,B,]2 [B,,B,]2 [C,C]2!ped-up! | %290
!ped! [D,B,]2 [D,^A,]2 [G,,G,]2!ped-up! |!ped! x/- [F,,F,]2 [F,=A,]2 [E,F,A,]2!ped-up! | %292
!ped! x3/2 [D,F,A,B,]4- [D,F,A,B,][E,G,B,]!ped-up! |!ped! z2 (G,2 F,2)!ped-up! | %294
!ped! (E,,2 B,,2 E,2)!ped-up! ::!ped! x/- E,,2 [B,,E,G,B,]2 [B,,E,G,B,]2!ped-up! | %296
!ped! F,,2 [B,,F,A,B,]2 [B,,F,A,B,]2-!ped-up! | x/!ped! G,,2 [B,,E,G,B,]2 [B,,E,G,B,]2!ped-up! | %298
!ped! A,,2 [B,,D,F,B,]2 [B,,D,F,B,]2-!ped-up! | x/!ped! G,,2 [B,,E,G,B,]2 [B,,E,G,B,]2!ped-up! | %300
!ped! F,,2 [B,,D,F,A,]2 B,,2!ped-up! |!ped! B,,2 B,,2 z2!ped-up! |1 %302
!ped! (C,,=G,,F,,E,,)!ped-up!!ped! ([B,,,F,,]C,,/^D,,/)!ped-up! :|2 %303
!ped! (C,,=G,,F,,E,,)!ped-up!!ped! (F,,E,,-)!ped-up! | %304
 x/!ped! [^D,,F,,]2 [D,F,B,]2 [^E,G,C]2-!ped-up! |: x/!ped! F,,2 [F,A,]2 [D,F,B,]2-!ped-up! | %306
 x/!ped! =E,,2 [=E,G,B,]2 [C,C-]2!ped-up! |!ped! CB,- B,^A, G,F,-!ped-up! | %308
 x/!ped! F,,2 [F,=A,]2 [C,E,A,]2!ped-up! |!ped! D,,2 [D,F,A,B,]2 [E,G,B,]2-!ped-up! | %310
 x/4!ped! B,,2 [G,B,E]2 [F,A,B,D]2!ped-up! |1!ped! E,,2 [E,F,A,B,D]2 [E,G,B,E][D,F,B,D]-!ped-up! | %312
 x/!ped! [^D,,F,,]2 [D,F,B,]2 [^E,G,C]2!ped-up! :|2!ped! E,,2 [E,F,A,B,D]2 [E,G,B,E]2!ped-up! |] %314
 E,,/z/z/E,/ G,/z/z/G,,/ A,,/z/z/A,/ | B,/z/z/B,,/ C,/z/z/C/ D/z/z/D,/ | %316
 E,/z/z/E/[K:treble] G/z/z/G,/ ^A,/z/z/^A/ | B/z/z/F/ F/z/z/c/ B/z/z/=A/ | %318
 G/z/z/g/ e/z/z/B/ c/z/z/^A/ | ^A/z/z/B/ c/z/z/e/ d/z/z/f/ | =d/z/z/=f/ c/z/z/e/ =c/z/z/=g/ | %321
 =c/z/z/=c'/ c/z/z/c'/ =b/z/z/B/ | %322
"^teneramente"!ped! z[K:bass] [B,,E,^G,][B,,E,G,][B,,E,G,][B,,E,G,][B,,E,G,]!ped-up! | %323
!ped! [B,,F,A,][B,,F,A,][B,,F,A,][B,,F,A,][B,,F,A,][B,,F,A,]!ped-up! | %324
!ped! [B,,G,B,][B,,G,B,][B,,G,B,][B,,G,B,][B,,G,B,][B,,G,B,]!ped-up! | %325
!ped! [B,,A,C][B,,A,C][B,,A,C][B,,A,C] [B,D][B,D]!ped-up! | %326
!ped! B,,/z/[G,B,E]/ z/ [G,B,E]/z/[G,B,E]/ z/ [G,B,E]/z/[G,B,E]/ z/!ped-up! | %327
!ped! B,,/z/[F,A,B,D]/ z/ [F,A,B,D]/z/[F,A,B,D]/ z/ [F,A,B,D]/z/[F,A,B,D]/ z/!ped-up! | %328
!ped! B,,/z/[G,B,E]/ z/ [G,B,E]/z/[G,B,E]/ z/ C,/z/[=G,^A,E]/ z/!ped-up! | %329
!ped! =C,/z/[=G,^A,E]/ z/ [G,A,E]/z/[G,A,E]/ z/ [C,G,]/z/[B,,B,]/ z/!ped-up! | %330
[K:treble] B,/z/z/B/ D/z/z/B/ ^E/z/z/G/ | F/z/z/c/ =E/z/z/=G/ =c/z/z/D/ | %332
 E/z/z/e/ d/z/z/D/ ^^C/z/z/^^c/ | d/z/z/D/ E/z/z/D/ G,/z/z/F,/ | F/z/z/^e/ f/z/z/c/ f/z/z/c/ | %335
 f/z/z/d/ =a/z/z/d/ b/z/z/=e/ | b/z/z/B/ ^B/z/z/c/ ^^c/z/z/d/ | %337
 e/z/z/[K:bass]D/ E/z/z/D,/ E,/z/z/=D,/ |!ped! (=D=D,) D,D, TD,3/2C,/4D,/4!ped-up! | %339
!ped! [C,^E,G,][C,E,G,][C,E,G,][C,E,G,][C,E,G,][C,E,G,]!ped-up! | %340
!ped! [C,F,A,][C,F,A,][C,F,A,][C,F,A,][C,=E,A,][C,E,A,]!ped-up! | %341
!ped! [B,,E,G,][B,,E,G,] [^A,,E,^^F,][A,,D,F,] [G,,D,G,][G,,B,,E,]!ped-up! | %342
"^""^"!ped! [^F,,^F,]/z/[F,=A,CE]/ z/ [F,A,CE]/z/[F,A,CE]/ z/ [F,A,CE]/z/[F,A,CE]/ z/!ped-up! | %343
!ped! F,,/z/[F,A,B,D]/ z/ [F,A,B,D]/z/[F,A,B,D]/ z/ [F,A,B,D]/z/[G,B,E]/ z/!ped-up! | %344
!ped! C,/z/[G,CE]/ z/ B,,/z/[G,B,E]/ z/ B,,/z/[K:treble][=C^DFA]/ z/!ped-up! | %345
!ped! [B,DFA]/z/[=CDFA]/ z/ [B,DFA]/z/[K:bass][=C,F,A,]/ z/ [B,,,B,,]/z/[E,,E,]/ z/!ped-up! || %346
[M:2/4] G,/B,/A,/G,/ E,/G,/F,/E,/ | D,/F,/E,/D,/ B,,/D,/C,/B,,/ | %348
 G,,/B,,/A,,/G,,/ E,,/G,,/F,,/E,,/ | C,,/E,,/D,,/C,,/ B,,,/C,,/=D,,/^D,,/ | E,, z G,, z | %351
 B,, z D, z | E, z G, z | .^A,.A,.B, z | G,/B,/=A,/G,/ F,/E,/D,/E,/ | %355
 D,/F,/E,/D,/ C,/B,,/^A,,/=A,,/ | G,,/B,,/A,,/G,,/ F,,/E,,/D,,/E,,/ | %357
 D,,/C,,/F,,/E,,/ D,,/B,,,/C,,/D,,/ | .E,,.F,,.G,,.A,, | .B,,.C,.^^C,.D, | .E,.F,.G,.A, | %361
 .^A,.B,.=C.B, | G,/B,/A,/G,/ F,/E,/D,/E,/ | F,/A,/G,/F,/ =E,/D,/C,/D,/ | %364
 E,/G,/F,/E,/ D,/C,/^B,,/C,/ | D,/C,/=B,,/^A,,/ G,,/F,,/E,,/=D,,/ | C,, .[A,,A,].[A,,A,].[C,C] | %367
 .[C,C].[B,,B,].[A,,A,].[G,,G,] | .[G,,G,].[F,,F,].[F,,F,].[G,,G,] | %369
 .[=A,,=A,].[B,,B,].[G,,G,][K:treble].[B,B] | .[B,B].[B,B].[B,B].[Cc] | .[B,B].[A,A].[A,A].[B,B] | %372
 .[A,A].[G,G].[G,G].[A,A] | .[G,G].[^^F,^^F].[G,G][K:bass] B,- | B,/A,/C/B,/ A,/G,/"^"^F,/E,/ | %375
 ^D,/B,,/C,/D,/ E,/F,/G,/A,/ |[K:treble] B,/^A,/B,/C/ D/E/F/E/ | D/B,/C/D/ E/!>(!D/E/F/!>)! || %378
[M:9/8]"^piacevole"!ped! G2 z!ped-up![K:bass]!ped! (G,/A,/B,/E,/F,/G,/) G,3!ped-up! |: %379
!ped! (A,/B,/C/F,/G,/A,/)!ped-up!!ped! B,,2 z x2 x!ped-up! | %380
!ped! (B,/D/E/G,/A,/B,/)!ped-up!!ped! B,,2 z G,/A,/B,/E,/F,/G,/!ped-up! | %381
!ped! B,,2 z!ped-up!!ped! B, x x (B,,/C,/D,/B,,/C,/D,/!ped-up! | %382
!ped! B,,/D,/E,/G,,/A,,/B,,/)!ped-up!!ped! (E,,3- E,,G,,F,,)!ped-up! | %383
!ped! (E,,2 D,,)!ped-up!!ped! A,,3- A,,C,B,,!ped-up! | %384
!ped! (([A,,,A,,]2 [G,,,G,,]))!ped-up!!ped! (([F,,F,]2 [E,,E,]))!ped-up!!ped! (E,/F,/=G,/E,/F,/G,/)!ped-up! |1 %385
!ped! =C,/E,/=G,/_B,/G,/E,/!ped-up!!ped! G,/E,/=F,/A,/B,/G,/!ped-up!!ped! (C,=B,,!ped-up!!ped!A,,!ped-up! | %386
!ped! ^G,,2) z!ped-up!!ped! ^G,/A,/B,/E,/F,/G,/ G,3!ped-up! :|2 %387
!ped! =C,/E,/=G,/_B,/G,/E,/!ped-up!!ped! G,/E,/=F,/A,/B,/G,/!ped-up!!ped! (C,=B,,)!ped-up!!ped!.=B,!ped-up! | %388
!ped! ^C,/[^E,^G,B,]/C,/[E,G,B,]/C,/[E,G,B,]/ C,/[E,G,B,]/C,/[E,G,B,]/C,/[E,G,B,]/!ped-up!!ped! C,/[^F,A,]/C,/[F,A,]/C,/[F,A,]/!ped-up! |: %389
!ped! B,,/[D,F,A,]/B,,/[D,F,A,]/B,,/[D,F,A,]/ B,,/[D,F,A,]/B,,/[D,F,A,]/B,,/[D,F,A,]/!ped-up!!ped! B,,/[E,G,]/B,,/[E,G,]/B,,/[E,G,]/!ped-up! | %390
!ped! ^A,,/[C,E,^^F,]/A,,/[C,E,F,]/A,,/[C,E,F,]/ A,,/[C,E,F,]/A,,/[C,E,F,]/A,,/[C,E,F,]/ A,,/[C,E,F,]/A,,/[C,E,F,]/!ped-up!!ped!A,,/[C,E,F,]/!ped-up! | %391
!ped! G,,/[B,,D,G,]/G,,/[B,,D,G,]/G,,/[B,,D,G,]/!ped-up!!ped! G,,/[C,D,^^F,]/G,,/[C,D,F,]/G,,/[C,D,F,]/!ped-up!!ped! G,,/"^più forte"[B,,D,G,]/G,,/[B,,D,G,]/G,,/[B,,E,G,]/!ped-up! | %392
"^"!ped! ^F,,/[A,,C,E,]/F,,/[A,,C,E,]/F,,/[A,,C,E,]/ F,,/[A,,C,E,]/F,,/[A,,C,E,]/F,,/[A,,C,E,]/!ped-up!"^"!ped! ^F,/G,/A,/F,/G,/A,/!ped-up! | %393
!ped! (D,/E,/F,/D,/E,/F,/)!ped-up!!ped! (D,/C,/B,,/A,,/G,,/F,,/)!ped-up!!ped! (E,/D,/C,/B,,/A,,/G,,/)!ped-up! | %394
!ped! B,,/C,/D,/E,/F,/G,/!ped-up!!ped! E,/F,/G,/E,/F,/G,/!ped-up!!ped! F,/G,/A,/F,/G,/A,/!ped-up! |1 %395
!ped! (B,,,/D,,/F,,/A,,/B,,/D,/ F,/A,/F,/D,/B,,/A,,/ F,,/B,,,/!ped-up!.E,,) C,/[^E,G,B,]/ | %396
!ped! ^C,/[^E,^G,B,]/C,/[E,G,B,]/C,/[E,G,B,]/ C,/[E,G,B,]/C,/[E,G,B,]/C,/[E,G,B,]/!ped-up!!ped! C,/[F,A,]/C,/[F,A,]/C,/[F,A,]/!ped-up! :| %397
!ped! (B,,,/D,,/F,,/A,,/B,,/D,/ F,/A,/F,/D,/B,,/A,,/ F,,/B,,,/!ped-up!!ped!.E,,) z!ped-up! || %398
[M:2/2] x8 | x8 | x8 | x8 | B,,4 F,,4 | F,,2 G,,2 z4 | z4 C,2 =C,2 | =G,,2 =F,,2 E,,2 ^F,,2 | x8 | %407
 x8 | x4 E4 | E2 FC D2 B,2- | B,2 GD E2 =D2 |[K:treble] =C2 AE =F2 E2 | =D2 B^F =G2 =F2 | %413
 E=FGF E2 ^F2 |[K:bass] x8 | x8 |[I:staff -1] G4 G,4- | G,^^F,[I:staff +1]D,C, =B,,2 G,,2 | %418
"^" ^F,4 A,4- | A,2 x2 x4 | B,,4 B,,,2 =A,,,2- | (A,,,4 G,,,2) E,2- | E,2 =D,C, B,,D,F,,F,, | %423
 ^E,,C,E,,E,, F,,F,C,C, | ^B,,^D,G,,G,, C,=E,G,,G,, | ^^F,,^^F,D,D, G,,G,G,,G,, | %426
 G,,2"^" ^F,,E,, D,,2 x2 |[I:staff -1] e4 (GE)[I:staff +1] EE- | E2 [F,D][E,^C] [D,B,]2 [B,,D,]2 | %429
 [C,E,][B,,D,][C,E,][D,F,] E,B,,E,,E,- | E,2 =D,C, B,,D,F,,F,, | ^E,,C,E,,E,, F,,F,C,C, | %432
 ^B,,^D,G,,G,, C,=E,G,,G,, | ^^F,,^^F,D,D,"^sempre piano" G,,G,G,,G,,- | %434
 G,,2"^" ^F,,E,, D,,2 =C,2- | C,2 B,,A,, G,,2 G,2- | [G,E]2 [F,D][E,^C] [D,B,]2 [B,,D,]2 | %437
 [C,E,][B,,D,][C,E,][D,F,] [E,G,] G,,A,,B,, ||[M:3/4]!ped! (.B,,2 .B,,2 .B,,2)!ped-up! | %439
!ped! (.B,,2 .B,,2 .B,,2)!ped-up! |!ped! B,,B,, B,,B,, B,,B,,!ped-up! | %441
!ped! B,,B,, B,,B,, B,,B,,!ped-up! ||[M:9/8]!ped! B,,B,,B,, B,,^A,,B,, B,,B,,B,,!ped-up! | %443
!ped! B,,/C,/B,,/C,/B,,/C,/ B,,/C,/B,,/C,/B,,/C,/ B,,/C,/B,,/C,/B,,/C,/!ped-up! | %444
!ped! B,,/F,/E,/F,/E,/F,/ E,/F,/E,/F,/E,/F,/ E,/F,/E,/F,/E,/F,/!ped-up! | %445
!ped! =G,/E,/G,/E,/G,/E,/!ped-up!!ped! =G,,/E,,/G,,/E,,/G,,/E,,/!ped-up! | %446
[M:3/4]!ped! B,,,/4B,,/4B,,,/4B,,/4B,,,/4B,,/4B,,,/4B,,/4!ped-up! | %447
!ped! B,,/4^C,/4B,,/4C,/4"^poco"B,,/4C,/4B,,/4C,/4 B,,/4C,/4B,,/4C,/4B,,/4"^a"C,/4B,,/4C,/4 B,,/4C,/4B,,/4C,/4"^poco"B,,/4C,/4B,,/4C,/4!ped-up! | %448
!ped! B,,/4C,/4B,,/4C,/4B,,/4C,/4B,,/4C,/4 B,,/4C,/4B,,/4C,/4B,,/4C,/4B,,/4C,/4 B,,/4C,/4B,,/4C,/4B,,/4C,/4B,,/4C,/4!ped-up! | %449
!ped! B,,/4C,/4B,,/4C,/4B,,/4C,/4B,,/4C,/4 B,,/4C,/4B,,/4C,/4B,,/4C,/4B,,/4C,/4 B,,/4C,/4B,,/4C,/4B,,/4C,/4B,,/4C,/4!ped-up! | %450
!ped! B,,/4C,/4B,,/4C,/4B,,/4C,/4B,,/4C,/4!ped-up!!ped! B,,/4C,/4B,,/4C,/4B,,/4C,/4B,,/4C,/4!ped-up!!ped! !trill(!TB,,2!ped-up! | %451
!ped! TB,,6!ped-up! |!ped! !trill(!TB,,6!ped-up! |!ped! TB,,2 !trill(!TE,4!ped-up! | %454
!ped! TE,4 !trill(!TD,,2!ped-up! |!ped! !trill(!TB,,,6!ped-up! |!ped! !trill)!B,,,6!ped-up! | %457
!ped! !trill(!TB,,,6!ped-up! |!ped! !trill)!B,,,6!ped-up! |!ped! !trill(!TB,,,6!ped-up! | %460
!ped! !trill)!B,,,6!ped-up! |!ped! !trill(!TB,,,6!ped-up! | %462
!ped! B,,,4{C,,D,,}!ped-up! E,,/4[K:treble] B,/4C/4D/4E/4F/4G/4^A/4 | %463
!ped! B/=d/4c/4 B/4c/4B/4A/4!ped-up!!ped! G/4A/4G/4F/4 ^E/4F/4E/4=D/4!ped-up![K:bass]!ped! C/4=D/4C/4B,/4 A,/4B,/4A,/4G,/4!ped-up! | %464
!ped! F,/[K:treble]c/4B/4 A/4B/4A/4G/4!ped-up!!ped! F/4G/4F/4^E/4 F/4=E/4^D/4C/4!ped-up![K:bass]!ped! B,/4C/4B,/4A,/4 G,/4A,/4G,/4F,/4!ped-up! | %465
!ped! E,/[K:treble]B/4A/4 G/4A/4G/4F/4!ped-up!!ped! E/4F/4E/4D/4 E/4D/4C/4B,/4!ped-up![K:bass]!ped! A,/4B,/4A,/4G,/4 F,/4E,/4D,/4C,/4!ped-up! | %466
!ped! D,/4B,/4G,/4B,/4D/4B,/4G,/4B,/4!ped-up!!ped! D,/4B,/4^^F,/4B,/4D/4B,/4F,/4B,/4!ped-up!!ped! D,/4B,/4G,/4B,/4D/4B,/4G,/4B,/4!ped-up! | %467
!ped! D,/4D/4B,/4D/4"^" ^F,/4D/4B,/4D/4!ped-up!!ped! A,/4D/4B,/4D/4[K:treble] B,/4F/4D/4F/4!ped-up!!ped! D/4A/4F/4A/4 E/4A/4F/4A/4!ped-up! | %468
!ped! D/4A/4F/4A/4!ped-up!!ped! D/4B/4F/4B/4!ped-up!!ped! E/4c/4G/4c/4!ped-up!!ped! F/4d/4A/4d/4!ped-up!!ped! G/4e/4d/4e/4!ped-up!!ped! d/4e/4c/4^A/4!ped-up! | %469
!ped! B/4G/4F/4E/4!ped-up!!ped!D/4E/4D/4C/4!ped-up![K:bass]!ped! B,/4A,/4G,/4F,/4!ped-up!!ped!E,/4D,/4C,/4B,,/4!ped-up!!ped! A,,/4G,,/4F,,/4E,,/4!ped-up!!ped!D,,/4B,,,/4C,,/4D,,/4!ped-up! | %470
!ped! E,,/4F,,/4A,,/4B,,/4F,,/4A,,/4B,,/4D,/4 E,,/4F,,/4A,,/4B,,/4F,,/4A,,/4B,,/4D,/4 E,,/4F,,/4A,,/4B,,/4F,,/4A,,/4B,,/4D,/4 | %471
 E,,/4F,,/4A,,/4B,,/4F,,/4A,,/4B,,/4D,/4 E,,/4F,,/4A,,/4B,,/4F,,/4A,,/4B,,/4D,/4 E,,/4F,,/4A,,/4B,,/4F,,/4A,,/4B,,/4D,/4 | %472
"^più dimin." E,,/4F,,/4A,,/4B,,/4F,,/4A,,/4B,,/4D,/4 E,,/4F,,/4A,,/4B,,/4F,,/4A,,/4B,,/4D,/4 E,,/4F,,/4A,,/4B,,/4F,,/4A,,/4B,,/4D,/4 | %473
 E,,/4F,,/4A,,/4B,,/4F,,/4A,,/4B,,/4D,/4 E,,/4F,,/4A,,/4B,,/4F,,/4A,,/4B,,/4D,/4 E,,/4F,,/4A,,/4B,,/4F,,/4A,,/4B,,/4D,/4!ped-up! | %474
!ped! (E,,2 G,,2 A,,2!ped-up! |!ped! B,,2 C,2 D,2)!ped-up! |!ped! ([E,G,]2 G,2 ^A,2!ped-up! | %477
!ped! B,2 F,2 B,,[=A,,,=A,,]!ped-up! |!ped! G,,2) (G,,2 A,,2)!ped-up! | %479
!ped! ([B,,,B,,]2 [C,,C,]3 [D,,D,]2)!ped-up! |!ped! [E,,E,]2 [C,,C,]2 [=C,,=C,]2!ped-up! | %481
!ped! (E,,2 =G,,2 B,,2)!ped-up! |!ped! B,2 B,2 B,2!ped-up! |!ped! B,2 B,2 B,2!ped-up! | %484
!ped! B,2 B,2 C2!ped-up! |!ped! B,2 ^A,2 G,2!ped-up! | %486
!ped! x/- [F,,F,]2 [F,=A,]2 [E,F,A,]2!ped-up! |!ped! x3/2 [D,F,A,B,]4- [D,F,A,B,][E,G,B,]!ped-up! | %488
!ped! z2 G,2 F,2!ped-up! |!ped! (E,,2 B,,2!ped-up!!ped! [E,,E,]2)!ped-up! |] %490
V:4
 x2 | x4 | x4 | x4 | x4 | x4 | x4 | x4 | x4 || %9
[M:3/4] x x [F,A,^B,][K:treble] z [^B,D] ([CE]/F/)(.E/.D/) | %10
[K:bass] x [E,G,][K:treble] x4[K:bass] | x6 | x6 | x4[K:treble] x[K:bass] x | x3[K:treble] x3 | %15
 x/[K:bass] x19/2 |[M:2/4][K:treble] (D<F) | (F<C) (E<G) | (G<D) F2 | E2 D2 | C2 ^B,2 | C2 A,2 | %22
 G,2 x2[K:bass] | x4 | x4 | x4 | x4 | x4 | x4 | x4 | x4 | x4 | x4 | x4 | x4 | x4 | x4 | x4 | x4 | %39
 x4 | x4 | x4 | x4 | x4 | x4 | x4 | x4 | x4 | x4 | x4 | x4 | x4 | x4 | x2 E,2 | D,2 C, z | x4 | %56
 x4 | x4 | x4 ||[M:3/4] x[K:treble] x [B,=D^E] z [EG] x2 | x [A,C] z [DF] x2 | x5[K:bass] x || %62
[K:C] x4[K:treble] x[K:bass] x | x6 ||[K:E] x3[K:treble] x3 |[K:bass] x6 | x9 || %67
[M:2/4] x3[K:treble] x | x4 | x2 (A2 | G2 F2 | E2) x2 | x4 | x2 (D2 | E2 F2 | G2) z2 | x4 | %77
[K:bass] x4 | x4 | x4 | x2 A,,2- | A,,4- | A,,4- | x4 | x4 | x4 | x2 F,,,2 | B,,,4 | x4 | x4 | x4 | %91
 x4 | x4 | x4 | x4 | x4 | x4 | x[K:treble] x3 | x4 | x4 | x2[K:bass] x2 | x2 |][K:G][M:6/8] x6 | %103
 x6 | x6 | x6 | x6 | x6 | x6 | x6 | B,,6 | B,,6 | B,,6- | B,,6 | B,,6 | B,,6 | B,,6- | B,,6 | %118
 B,,6 | B,,6 | B,,6- | B,,6 | B,,6 | B,,6 | B,,6- | B,,3 x x2 | x6 | x6 | x6 | x6 | x6 | x6 | x6 | %133
 x6 | F,6 | F,6 | x6 | x6 | F,6 | F,6 | x6 | x6 | x[K:treble] x5 | x5[K:bass] x | x6 | x6 | x6 | %147
 x6 | x6 | x6 | G,,6 | G,,3 =F,,3 | =F,,6 | E,,6 | =F,,6 | E,,6 | x6 | x6 | x6 | x6 | x6 | x6 | %162
 x6 | x6 |[K:treble] x6 | x6 | x3[K:bass] x3 | x6 | x6 | x6 | x6 | x6 | x6 | x6 | x6 | x6 | x6 | %177
 x6 | x6 | x6 | x6 | x6 | x6 | x4 x7/4 x/4 | x6 | x6 | E,6 | ^F,6 | z2 z (B,,3 | A,,3 C,3) | B,,6 | %191
 C,6 | x6 | x6 | x6 | x6 | x6 | x6 |[K:treble] x6 | x6 | x6 | x6 | x6 | x6 | x6 | x6 |[K:bass] x6 | %207
 x6 | x6 | x6 | x6 | x6 | x6 | x6 | x6 | z2 z C,3 | B,,6 | x6 | x6 | z3 B,,2 z | E,2 z G,,2 z | %221
 C,2 x4 | x6 | x6 | x6 | x6 | x6 | x6 | x6 | x6 | x6 | x6 | x6 | x2 x[K:treble] B,3 | B,6 | x6 | %236
 x6 | B,6 | B,6 | x6 | x6 | x6 | x6 | x6 | x5[K:bass] x | x6 | x6 | x6 | x6 | x6 | x6 | C,6 | %252
 C,3 _B,,3 | _B,,6 | A,,6 | _B,,6 | A,,6 | x6 | =B,,,6 | x6 | x6 | x6 | x6 | x6 | x6 | %265
 x3[K:treble] x3 | x6 |[K:bass] x6 | x6 | x6 | x6 | x6 | x6 | x6 | x6 | x6 | x6 | x6 | x6 |] %279
[K:E][M:3/4] x6 | x6 | x6 | x6 | x/- G,,4 x2 | x7 | E,2 [C,,C,]2 [=C,,=C,]2 | =C,,4 B,,,2 :: %287
 z2 D,2 ^E,2 | F,2 ^C,2 D,2 | x6 | x6 | x13/2 | x15/2 | B,,4 B,,2 | x6 :: x13/2 | x6 | x13/2 | x6 | %299
 x13/2 | x4 D,,2 | E,,2 D,,=D,, C,,F,,, |1 F,,,4 x2 :|2 F,,,4 B,,,C,,- | x13/2 |: x13/2 | x13/2 | %307
 D,2 (D,2 G,,F,,-) | x13/2 | x6 | x25/4 |1 x6 | x13/2 :|2 x6 |] x6 | x6 | x2[K:treble] x4 | x6 | %318
 x6 | x6 | x6 | x6 | x[K:bass] x5 | x6 | x6 | x6 | x6 | x6 | x6 | x6 |[K:treble] x6 | x6 | x6 | %333
 x6 | x6 | x6 | x6 | x3/2[K:bass] x9/2 | x6 | x6 | x6 | x6 | x6 | x6 | x5[K:treble] x | %345
 x3[K:bass] x3 ||[M:2/4] x4 | x4 | x4 | x4 | x4 | x4 | x4 | x4 | x4 | x4 | x4 | x4 | x4 | x4 | x4 | %361
 x4 | x4 | x4 | x4 | x4 | x4 | x4 | x4 | x3[K:treble] x | x4 | x4 | x4 | x3[K:bass] x | x4 | x4 | %376
[K:treble] x4 | x4 ||[M:9/8] x3[K:bass] x3 B,,2 z |: z2 z (F,,/G,,/A,,/F,,/G,,/A,,/) B,,,2 z | x9 | %381
 x2 x F,/G,/A,/F,/G,/A,/ x2 x | x9 | x2 x D,,C,,B,,, A,,,C,,B,,, | x2 x x2 x C,2 =C, |1 %385
 =C,3 C,3 x2 x | x2 x x2 x B,,2 z :|2 =C,3 C,3 x2 x | x9 |: x9 | x9 | x9 | x2 x x2 x E,3 | x9 | %394
 x2 x B,,3 B,,3 |1 x9 | x9 :| x9 ||[M:2/2] z2 .E,,2 G,,4- | G,,2 .F,,2 A,,4- | A,,2 .G,,2 B,,4- | %401
 B,,2 A,,2 =C,2 E,,2- | E,,2 F,,C,, D,,2 B,,,2 | B,,,2 G,,D,, E,,2 B,,,2 | ^B,,,2 ^C,,4 =C,,2- | %405
 C,,6 B,,,2 | z .B,,,.^C,,.^D,, .E,,.^F,,.^G,,.E,, | .F,,.B,,,.D,,.E,, .F,,.G,,.A,,.F,, | %408
 .B,,.D,.E,.F, G,4 | F,4 A,4 | G,4 B,4 |[K:treble] A,4 =C4- | C2 B,4 =G,2 | =C6 B,2 | %414
[K:bass] B,4"^sempre" =D,4- | D,2 ^C,B,, A,,2 F,,2- | F,,G,,,^A,,,^B,,, C,,D,,E,,C,, | %417
 D,,2 z2 z2 G,,2- | G,,F,,D,^E, F,C,F,=E, | D,B,,C,D, E,B,,C,^A,, | x8 | x8 | x8 | x8 | x8 | x8 | %426
 x6 =C,2- | C,2 B,,A,, G,,2 G,2 | G,2 x2 x4 | x8 | x8 | x8 | x8 | x8 | x8 | x8 | x8 | x8 || %438
[M:3/4] E,,2 G,,2 F,,2 | A,,2 F,,2 G,,2 | (E,,2 G,,2 F,,E,,) | (D,,2 C,,2 B,,,=A,,) || %442
[M:9/8] (G,,3 G,,3 =A,,3) | G,,3 D,,3 F,,3 | E,, z z C,3- C,2 =C, | =C,3 =C,,3 |[M:3/4] x2 | %447
 (E,,G,,) (G,,E,,) (E,,F,,) | (D,,A,,) (A,,G,,) (G,,F,,) | (E,,G,,) (G,,E,,) (E,,D,,) | %450
 D,,D,, C,,C,, (3B,,,=A,,A,, | (3G,,G,,G,, (3G,,G,,G,, (3G,,A,,!trill)!A,, | %452
 (3A,,F,,F,, (3F,,D,,D,, (3D,,C,,D,, | (3D,,E,,!trill)!E,, (3z C,C, (3C,^B,,C, | %454
 (3(C,^B,,C,) (3C,=C,!trill)!C, x2 | x6 | x6 | x6 | x6 | x6 | x6 | x6 | %462
 Tx2 x/4x/4x/4x/4(5:4:5x/4x/4x/4!trill)!x/4x/4 x2[K:treble] | x4[K:bass] x2 | %464
 x/[K:treble] x7/2[K:bass] x2 | x/[K:treble] x7/2[K:bass] x2 | x6 | x3[K:treble] x3 | x6 | %469
 x2[K:bass] x4 | x6 | x6 | x6 | x6 | x6 | x6 | x6 | x6 | (G,,,4 A,,,2) | x7 | x6 | =C,,4 B,,,2 | %482
 z2 D,2 ^E,2 | F,2 ^C,2 D,2 | =E,2 B,,2 C,2 | D,2 D,2 G,,2 | x13/2 | x15/2 | B,,4 B,,2 | x6 |] %490
V:5
 x2 | x4 | x4 | x4 | x4 | x4 | x4 | x4 | x4 ||[M:3/4] x7 | x6 | x6 | x6 | x6 | %14
 x2!8va(! x5/2!8va)! x3/2 | x10 |[M:2/4] x2 | x4 | x4 | x4 | x4 | x4 | x4 | x4 | x4 | x4 | x4 | %27
 x4 | x4 | x4 | x4 | x4 | x4 | x4 | x4 | x4 | x4 | x4 | x4 | x4 | x4 | x4 | x4 |!8va(! x4 | x4 | %45
 x4 | x4 | x4 | x4 | x4 | x4 | x2!8va)! x2 | x4 | x4 | x4 | x4 | x4 | x4 | x4 ||[M:3/4] x7 | x6 | %61
 x6 ||[K:C] x6 | x6 ||[K:E] x6 | x6 | x9 ||[M:2/4] x4 | x4 | x4 | x4 | x4 | x4 | x4 | x4 | x4 | %76
 x4 | x4 | x4 | x4 | x4 | x4 | x4 | x4 | x4 | x4 | x4 | x4 | x4 |[K:bass] x4 | x4 | x4 | x4 | x4 | %94
 x4 |[K:treble] x4 | x4 | x4 | x4 | x4 | x2[K:bass] x2 | x2 |][K:G][M:6/8][K:treble] x6 | x6 | x6 | %105
 x6 | x6 | x6 | x6 | x6 | x6 | x6 | x6 | x6 | x6 | x6 | x6 | x6 | x6 | x6 | x6 | x6 | x6 | x6 | %124
 x6 | x6 |[K:bass] x6 | x6 | x6 | x6 |[K:treble] x6 | x6 | x6 | x6 | x6 | x6 | x6 | x6 | x6 | x6 | %140
 x6 | x6 | x6 | x6 | x6 | x6 | x6 | x6 | x6 | x6 | x6 | x6 | x6 | x6 | x6 | x6 | x6 | x6 | x6 | %159
 x6 | x6 | x6 | x6 | x6 | x6 | x6 | x6 | x6 | x6 | x6 | x6 | x6 | x6 | x6 | x6 | x6 | x6 | x6 | %178
 x6 | x6 | x6 |[K:bass] x6 | x6 | x6 |[K:treble] x6 | x6 | x6 | x6 | x6 | x6 | x6 | x6 | x6 | C6 | %194
 x6 | x6 | x6 | x6 | x6 | x6 | x6 | x6 | x6 | x6 | x6 | x6 | x6 | x6 | x6 | x6 | x6 | x6 | x6 | %213
 x6 | x6 | x6 | x6 | x6 | x6 | x6 | x6 | x6 | x6 | x6 | x6 |[K:bass] x6 | x6 |[K:treble] x6 | x6 | %229
 x6 | x6 | x6 | x6 | x6 | x6 | x6 | x6 | x6 | x6 | x6 | x6 | x6 | x6 | x6 | x6 | x6 | x6 | x6 | %248
 x6 | x6 | x6 | x6 | x6 | x6 | x6 | x6 | x6 |[K:bass] x6 | x6 |[K:treble] x6 | x6 | x6 | x6 | %263
!8va(! x6 | x5!8va)! x | x6 | x6 | x6 | x6 | x6 | x6 | x6 | x6 | x6 | x6 | x6 | x6 | x6 | x6 |] %279
[K:E][M:3/4] x6 | x6 | x6 | x6 | x13/2 | x7 | x6 |[K:bass] x6 ::[K:treble] x6 | x6 | x6 | x6 | %291
 x13/2 | x15/2 | x6 | x6 :: x13/2 | x6 | x13/2 | x6 | x13/2 | x6 | x6 |1 x6 :|2 x6 | x13/2 |: %305
 x13/2 | x13/2 | x6 | x13/2 | x6 | x25/4 |1 x6 | x13/2 :|2 x6 |] x6 | x6 | x6 | x6 | x6 | x6 | x6 | %321
 x6 | x6 | x6 | x6 | x6 | x6 | x6 | x6 | x6 | x6 | x6 | x6 | x6 | x6 | x6 | x6 | x6 | x6 | x6 | %340
 x6 | x6 | x6 | x6 | x6 | x6 ||[M:2/4] x4 | x4 | x4 | x4 | x4 | x4 | x4 | x4 | x4 | x4 | x4 | x4 | %358
 x4 | x4 | x4 | x4 | x4 | x4 | x4 | x4 | x4 | x4 | x4 | x4 | x4 | x4 | x4 | x4 | x4 | x4 | x4 | %377
 x4 ||[M:9/8] x9 |: x9 | x9 | x9 | x9 | x9 | x9 |1 x9 | x9 :|2 x9 | x9 |: x9 | x9 | x9 | x9 | x9 | %394
 x9 |1 x9 | x9 :| x9 ||[M:2/2][K:bass] x8 | x8 | x8 | x8 | x8 | x8 | x8 |[K:treble] x8 | %406
[K:bass] x8 | x8 |[K:treble] x8 | x8 | x8 | x8 | x8 | x4!8va(! x4!8va)! | x8 | x8 | x8 | x8 | x8 | %419
 x8 | x8 | x8 | x8 | x8 | x8 | x8 | x8 | x8 | x8 | x8 | x8 | x8 | x8 | x8 | x8 | x8 | x8 | x8 || %438
[M:3/4] x6 | x6 | x6 | x6 ||[M:9/8] x9 | x9 | x9 | x6 |[M:3/4] x2 | x6 | x6 | x6 | x6 | x6 | x6 | %453
 x6 | x6 | x6 | x6 | x6 | x6 | x6 |!8va(! x6 | x6 | x!8va)! x5 |!8va(! x6 | x6 | x6 | x6 | x6 | %468
 x6 | x6 | x6!8va)! | x6 | x6 | x6 | x6 | x6 | x6 | x6 | x6 |[K:bass] x7 | x6 | x6 |[K:treble] x6 | %483
 x6 | x6 | x6 | x13/2 | x15/2 | x6 | x6 |] %490
V:6
 x2 | x4 | x4 | x4 | x4 | x4 | x4 | x4 | x4 ||[M:3/4] x7 | x6 | x6 | x6 | x6 | %14
 x2!8va(! x5/2!8va)! x3/2 | x10 |[M:2/4] x2 | x4 | x4 | x4 | x4 | x4 | x4 | x4 | x4 | x4 | x4 | %27
 x4 | x4 | x4 | x4 | x4 | x4 | x4 | x4 | x4 | x4 | x4 | x4 | x4 | x4 | x4 | x4 |!8va(! x4 | x4 | %45
 x4 | x4 | x4 | x4 | x4 | x4 | x2!8va)! x2 | x4 | x4 | x4 | x4 | x4 | x4 | x4 ||[M:3/4] x7 | x6 | %61
 x6 ||[K:C] x6 | x6 ||[K:E] x6 | x6 | x9 ||[M:2/4] x4 | x4 | x4 | x4 | x4 | x4 | x4 | x4 | x4 | %76
 x4 | x4 | x4 | x4 | x4 | x4 | x4 | x4 | x4 | x4 | x4 | x4 | x4 |[K:bass] x4 | x4 | x4 | x4 | x4 | %94
 x4 |[K:treble] x4 | x4 | x4 | x4 | x4 | x2[K:bass] x2 | x2 |][K:G][M:6/8][K:treble] x6 | x6 | x6 | %105
 x6 | x6 | x6 | x6 | x6 | x6 | x6 | x6 | x6 | x6 | x6 | x6 | x6 | x6 | x6 | x6 | x6 | x6 | x6 | %124
 x6 | x6 |[K:bass] x6 | x6 | x6 | x6 |[K:treble] x6 | x6 | x6 | x6 | x6 | x6 | x6 | x6 | x6 | x6 | %140
 x6 | x6 | x6 | x6 | x6 | x6 | x6 | x6 | x6 | x6 | x6 | x6 | x6 | x6 | x6 | x6 | x6 | x6 | x6 | %159
 x6 | x6 | x6 | x6 | x6 | x6 | x6 | x6 | x6 | x6 | x6 | x6 | x6 | x6 | x6 | x6 | x6 | x6 | x6 | %178
 x6 | x6 | x6 |[K:bass] x6 | x6 | x6 |[K:treble] x6 | x6 | x6 | x6 | x6 | x6 | x6 | x6 | x6 | x6 | %194
 x6 | x6 | x6 | x6 | x6 | x6 | x6 | x6 | x6 | x6 | x6 | x6 | x6 | x6 | x6 | x6 | x6 | x6 | x6 | %213
 x6 | x6 | x6 | x6 | x6 | x6 | x6 | x6 | x6 | x6 | x6 | x6 |[K:bass] x6 | x6 |[K:treble] x6 | x6 | %229
 x6 | x6 | x6 | x6 | x6 | x6 | x6 | x6 | x6 | x6 | x6 | x6 | x6 | x6 | x6 | x6 | x6 | x6 | x6 | %248
 x6 | x6 | x6 | x6 | x6 | x6 | x6 | x6 | x6 |[K:bass] x6 | x6 |[K:treble] x6 | x6 | x6 | x6 | %263
!8va(! x6 | x5!8va)! x | x6 | x6 | x6 | x6 | x6 | x6 | x6 | x6 | x6 | x6 | x6 | x6 | x6 | x6 |] %279
[K:E][M:3/4] x6 | x6 | x6 | x6 | x13/2 | x7 | x6 |[K:bass] x6 ::[K:treble] x6 | x6 | x6 | x6 | %291
 x13/2 | x15/2 | x6 | x6 :: x13/2 | x6 | x13/2 | x6 | x13/2 | x6 | x6 |1 x6 :|2 x6 | x13/2 |: %305
 x13/2 | x13/2 | x6 | x13/2 | x6 | x25/4 |1 x6 | x13/2 :|2 x6 |] x6 | x6 | x6 | x6 | x6 | x6 | x6 | %321
 x6 | x4 (6:4:6x/4x/4x/4x/4x/4x/4(5:4:5x/4x/4x/4x/4x/4 | %323
 x4 (6:4:6x/4x/4x/4x/4x/4x/4(5:4:5x/4x/4x/4x/4x/4 | %324
 x4 (6:4:6x/4x/4x/4x/4x/4x/4(5:4:5x/4x/4x/4x/4x/4 | %325
 x4 (6:4:6x/4x/4x/4x/4x/4x/4(5:4:5x/4x/4x/4x/4x/4 | x6 | x6 | x6 | x6 | x6 | x6 | x6 | x6 | x6 | %335
 x6 | x6 | x6 | x4 (6:4:6x/4x/4x/4x/4x/4x/4(5:4:5x/4x/4x/4x/4x/4 | %339
 x4 (6:4:6x/4x/4x/4x/4x/4x/4(5:4:5x/4x/4x/4x/4x/4 | %340
 x4 (6:4:6x/4x/4x/4x/4x/4x/4(5:4:5x/4x/4x/4x/4x/4 | x6 | x6 | x6 | x6 | x6 ||[M:2/4] x4 | x4 | x4 | %349
 x4 | x4 | x4 | x4 | x4 | x4 | x4 | x4 | x4 | x4 | x4 | x4 | x4 | x4 | x4 | x4 | x4 | x4 | x4 | %368
 x4 | x4 | x4 | x4 | x4 | x4 | x4 | x4 | x4 | x4 ||[M:9/8] x9 |: x9 | x9 | x9 | x9 | x9 | x9 |1 %385
 x9 | x9 :|2 x9 | x9 |: x9 | x9 | x9 | x9 | x9 | x9 |1 x9 | x9 :| x9 ||[M:2/2][K:bass] x8 | x8 | %400
 x8 | x8 | x8 | x8 | x8 |[K:treble] x8 |[K:bass] x8 | x8 |[K:treble] x8 | x8 | x8 | x8 | x8 | %413
 x4!8va(! x4!8va)! | x8 | x8 | x8 | x8 | x8 | x8 | x8 | x8 | x8 | x8 | x8 | x8 | x8 | x8 | x8 | %429
 x8 | x8 | x8 | x8 | x8 | x8 | x8 | x8 | x6 x D ||[M:3/4] x6 | x6 | x6 | x6 ||[M:9/8] x9 | x9 | %444
 x9 | x6 |[M:3/4] x2 | x6 | x6 | x6 | x6 | x6 | x6 | x6 | x4 (3:2:5x/x/4x/4 x z | x6 | x6 | x6 | %458
 x6 | x6 |!8va(! x6 | x6 | x!8va)! x5 |!8va(! x6 | x6 | x6 | x6 | x6 | x6 | x6 | x6!8va)! | x6 | %472
 x6 | Tx4 x/4x/4x/4x/4(5:4:5x/4x/4x/4!trill)!x/4x/4 | x6 | x6 | x6 | x6 | x6 |[K:bass] x7 | x6 | %481
 x6 |[K:treble] x6 | x6 | x6 | x6 | x13/2 | x15/2 | x6 | x6 |] %490

